PiCameraControl/PiCameraControl/LUTs/nir_simulation.cube
TITLE "NIR_Simulation"
LUT_3D_SIZE 5
0.116571 0.116571 0.116571
0.250000 0.000000 0.000000
0.500000 0.000000 0.000000
0.750000 0.000000 0.000000
1.000000 0.000000 0.000000
0.000000 0.250000 0.000000
0.250000 0.250000 0.000000
0.500000 0.250000 0.000000
0.750000 0.250000 0.000000
1.000000 0.250000 0.000000
0.000000 0.500000 0.000000
0.250000 0.500000 0.000000
0.500000 0.500000 0.000000
0.750000 0.500000 0.000000
1.000000 0.500000 0.000000
0.000000 0.750000 0.000000
0.250000 0.750000 0.000000
0.500000 0.750000 0.000000
0.750000 0.750000 0.000000
0.544444 0.544444 0.544444
0.000000 1.000000 0.000000
0.250000 1.000000 0.000000
0.500000 1.000000 0.000000
0.750000 1.000000 0.000000
1.000000 1.000000 0.000000
0.000000 0.000000 0.250000
0.250000 0.000000 0.250000
0.500000 0.000000 0.250000
0.750000 0.000000 0.250000
1.000000 0.000000 0.250000
0.278431 0.278431 0.278431
0.321555 0.321555 0.321555
0.457843 0.457843 0.457843
0.492157 0.492157 0.492157
1.000000 0.250000 0.250000
0.000000 0.500000 0.250000
0.758170 0.758170 0.758170
0.797196 0.797196 0.797196
0.627451 0.627451 0.627451
1.000000 0.500000 0.250000
0.000000 0.750000 0.250000
0.250000 0.750000 0.250000
0.500000 0.750000 0.250000
0.750000 0.750000 0.250000
1.000000 0.750000 0.250000
0.000000 1.000000 0.250000
0.250000 1.000000 0.250000
0.500000 1.000000 0.250000
0.750000 1.000000 0.250000
1.000000 1.000000 0.250000
0.000000 0.000000 0.500000
0.250000 0.000000 0.500000
0.500000 0.000000 0.500000
0.750000 0.000000 0.500000
1.000000 0.000000 0.500000
0.334641 0.334641 0.334641
0.383007 0.383007 0.383007
0.380392 0.380392 0.380392
0.750000 0.250000 0.500000
1.000000 0.250000 0.500000
0.000000 0.500000 0.500000
0.352288 0.352288 0.352288
0.462664 0.462664 0.462664
0.650980 0.650980 0.650980
1.000000 0.500000 0.500000
0.000000 0.750000 0.500000
0.250000 0.750000 0.500000
0.811765 0.811765 0.811765
0.721008 0.721008 0.721008
0.875000 0.875000 0.875000
0.000000 1.000000 0.500000
0.250000 1.000000 0.500000
0.500000 1.000000 0.500000
0.750000 1.000000 0.500000
1.000000 1.000000 0.500000
0.000000 0.000000 0.750000
0.250000 0.000000 0.750000
0.500000 0.000000 0.750000
0.750000 0.000000 0.750000
1.000000 0.000000 0.750000
0.000000 0.250000 0.750000
0.250000 0.250000 0.750000
0.500000 0.250000 0.750000
0.750000 0.250000 0.750000
1.000000 0.250000 0.750000
0.254902 0.254902 0.254902
0.317087 0.317087 0.317087
0.392113 0.392113 0.392113
0.750000 0.500000 0.750000
1.000000 0.500000 0.750000
0.000000 0.750000 0.750000
0.250000 0.750000 0.750000
0.746405 0.746405 0.746405
0.619832 0.619832 0.619832
0.696863 0.696863 0.696863
0.000000 1.000000 0.750000
0.250000 1.000000 0.750000
0.500000 1.000000 0.750000
0.847059 0.847059 0.847059
0.728105 0.728105 0.728105
0.000000 0.000000 1.000000
0.250000 0.000000 1.000000
0.500000 0.000000 1.000000
0.750000 0.000000 1.000000
1.000000 0.000000 1.000000
0.000000 0.250000 1.000000
0.250000 0.250000 1.000000
0.500000 0.250000 1.000000
0.750000 0.250000 1.000000
1.000000 0.250000 1.000000
0.000000 0.500000 1.000000
0.968627 0.968627 0.968627
0.500000 0.500000 1.000000
0.750000 0.500000 1.000000
1.000000 0.500000 1.000000
0.000000 0.750000 1.000000
0.250000 0.750000 1.000000
0.538998 0.538998 0.538998
0.397642 0.397642 0.397642
1.000000 0.750000 1.000000
0.000000 1.000000 1.000000
0.250000 1.000000 1.000000
0.721569 0.721569 0.721569
0.498546 0.498546 0.498546
0.760195 0.760195 0.760195
