PiCameraControl/PiCameraControl/LUTs/nir_simulation.cube
TITLE "NIR_Simulation"
LUT_3D_SIZE 33
0.116571 0.116571 0.116571
0.108395 0.108395 0.108395
0.190103 0.190103 0.190103
0.143137 0.143137 0.143137
0.254902 0.254902 0.254902
0.101961 0.101961 0.101961
0.187500 0.000000 0.000000
0.218750 0.000000 0.000000
0.250000 0.000000 0.000000
0.281250 0.000000 0.000000
0.312500 0.000000 0.000000
0.343750 0.000000 0.000000
0.375000 0.000000 0.000000
0.406250 0.000000 0.000000
0.437500 0.000000 0.000000
0.468750 0.000000 0.000000
0.500000 0.000000 0.000000
0.531250 0.000000 0.000000
0.562500 0.000000 0.000000
0.593750 0.000000 0.000000
0.625000 0.000000 0.000000
0.656250 0.000000 0.000000
0.687500 0.000000 0.000000
0.718750 0.000000 0.000000
0.750000 0.000000 0.000000
0.781250 0.000000 0.000000
0.812500 0.000000 0.000000
0.843750 0.000000 0.000000
0.875000 0.000000 0.000000
0.906250 0.000000 0.000000
0.937500 0.000000 0.000000
0.968750 0.000000 0.000000
1.000000 0.000000 0.000000
0.275250 0.275250 0.275250
0.231802 0.231802 0.231802
0.182124 0.182124 0.182124
0.198693 0.198693 0.198693
0.188235 0.188235 0.188235
0.156250 0.031250 0.000000
0.187500 0.031250 0.000000
0.218750 0.031250 0.000000
0.250000 0.031250 0.000000
0.281250 0.031250 0.000000
0.312500 0.031250 0.000000
0.343750 0.031250 0.000000
0.375000 0.031250 0.000000
0.406250 0.031250 0.000000
0.437500 0.031250 0.000000
0.468750 0.031250 0.000000
0.500000 0.031250 0.000000
0.531250 0.031250 0.000000
0.562500 0.031250 0.000000
0.593750 0.031250 0.000000
0.625000 0.031250 0.000000
0.656250 0.031250 0.000000
0.687500 0.031250 0.000000
0.718750 0.031250 0.000000
0.750000 0.031250 0.000000
0.781250 0.031250 0.000000
0.812500 0.031250 0.000000
0.843750 0.031250 0.000000
0.875000 0.031250 0.000000
0.906250 0.031250 0.000000
0.937500 0.031250 0.000000
0.968750 0.031250 0.000000
1.000000 0.031250 0.000000
0.524706 0.524706 0.524706
0.431691 0.431691 0.431691
0.420915 0.420915 0.420915
0.196078 0.196078 0.196078
0.125000 0.062500 0.000000
0.156250 0.062500 0.000000
0.187500 0.062500 0.000000
0.218750 0.062500 0.000000
0.250000 0.062500 0.000000
0.281250 0.062500 0.000000
0.312500 0.062500 0.000000
0.343750 0.062500 0.000000
0.375000 0.062500 0.000000
0.406250 0.062500 0.000000
0.437500 0.062500 0.000000
0.468750 0.062500 0.000000
0.500000 0.062500 0.000000
0.531250 0.062500 0.000000
0.562500 0.062500 0.000000
0.593750 0.062500 0.000000
0.625000 0.062500 0.000000
0.656250 0.062500 0.000000
0.687500 0.062500 0.000000
0.718750 0.062500 0.000000
0.750000 0.062500 0.000000
0.781250 0.062500 0.000000
0.812500 0.062500 0.000000
0.843750 0.062500 0.000000
0.875000 0.062500 0.000000
0.906250 0.062500 0.000000
0.937500 0.062500 0.000000
0.968750 0.062500 0.000000
1.000000 0.062500 0.000000
0.764706 0.764706 0.764706
0.500807 0.500807 0.500807
0.486667 0.486667 0.486667
0.539216 0.539216 0.539216
0.501961 0.501961 0.501961
0.156250 0.093750 0.000000
0.187500 0.093750 0.000000
0.218750 0.093750 0.000000
0.250000 0.093750 0.000000
0.281250 0.093750 0.000000
0.312500 0.093750 0.000000
0.343750 0.093750 0.000000
0.375000 0.093750 0.000000
0.406250 0.093750 0.000000
0.437500 0.093750 0.000000
0.468750 0.093750 0.000000
0.500000 0.093750 0.000000
0.531250 0.093750 0.000000
0.562500 0.093750 0.000000
0.593750 0.093750 0.000000
0.625000 0.093750 0.000000
0.656250 0.093750 0.000000
0.687500 0.093750 0.000000
0.718750 0.093750 0.000000
0.750000 0.093750 0.000000
0.781250 0.093750 0.000000
0.812500 0.093750 0.000000
0.843750 0.093750 0.000000
0.875000 0.093750 0.000000
0.906250 0.093750 0.000000
0.937500 0.093750 0.000000
0.968750 0.093750 0.000000
1.000000 0.093750 0.000000
0.000000 0.125000 0.000000
0.470588 0.470588 0.470588
0.505447 0.505447 0.505447
0.543529 0.543529 0.543529
0.537255 0.537255 0.537255
0.156250 0.125000 0.000000
0.187500 0.125000 0.000000
0.218750 0.125000 0.000000
0.250000 0.125000 0.000000
0.281250 0.125000 0.000000
0.312500 0.125000 0.000000
0.343750 0.125000 0.000000
0.375000 0.125000 0.000000
0.406250 0.125000 0.000000
0.437500 0.125000 0.000000
0.468750 0.125000 0.000000
0.500000 0.125000 0.000000
0.531250 0.125000 0.000000
0.562500 0.125000 0.000000
0.593750 0.125000 0.000000
0.625000 0.125000 0.000000
0.656250 0.125000 0.000000
0.687500 0.125000 0.000000
0.718750 0.125000 0.000000
0.750000 0.125000 0.000000
0.781250 0.125000 0.000000
0.812500 0.125000 0.000000
0.843750 0.125000 0.000000
0.875000 0.125000 0.000000
0.906250 0.125000 0.000000
0.937500 0.125000 0.000000
0.968750 0.125000 0.000000
1.000000 0.125000 0.000000
0.000000 0.156250 0.000000
0.031250 0.156250 0.000000
0.413725 0.413725 0.413725
0.093750 0.156250 0.000000
0.701961 0.701961 0.701961
0.156250 0.156250 0.000000
0.187500 0.156250 0.000000
0.129412 0.129412 0.129412
0.160784 0.160784 0.160784
0.281250 0.156250 0.000000
0.312500 0.156250 0.000000
0.343750 0.156250 0.000000
0.375000 0.156250 0.000000
0.406250 0.156250 0.000000
0.437500 0.156250 0.000000
0.468750 0.156250 0.000000
0.500000 0.156250 0.000000
0.531250 0.156250 0.000000
0.562500 0.156250 0.000000
0.593750 0.156250 0.000000
0.625000 0.156250 0.000000
0.656250 0.156250 0.000000
0.687500 0.156250 0.000000
0.718750 0.156250 0.000000
0.750000 0.156250 0.000000
0.781250 0.156250 0.000000
0.812500 0.156250 0.000000
0.843750 0.156250 0.000000
0.875000 0.156250 0.000000
0.906250 0.156250 0.000000
0.937500 0.156250 0.000000
0.968750 0.156250 0.000000
1.000000 0.156250 0.000000
0.000000 0.187500 0.000000
0.031250 0.187500 0.000000
0.490196 0.490196 0.490196
0.627451 0.627451 0.627451
0.652549 0.652549 0.652549
0.156250 0.187500 0.000000
0.187500 0.187500 0.000000
0.218750 0.187500 0.000000
0.250000 0.187500 0.000000
0.281250 0.187500 0.000000
0.312500 0.187500 0.000000
0.343750 0.187500 0.000000
0.375000 0.187500 0.000000
0.406250 0.187500 0.000000
0.437500 0.187500 0.000000
0.468750 0.187500 0.000000
0.500000 0.187500 0.000000
0.531250 0.187500 0.000000
0.562500 0.187500 0.000000
0.593750 0.187500 0.000000
0.625000 0.187500 0.000000
0.656250 0.187500 0.000000
0.687500 0.187500 0.000000
0.718750 0.187500 0.000000
0.750000 0.187500 0.000000
0.781250 0.187500 0.000000
0.812500 0.187500 0.000000
0.843750 0.187500 0.000000
0.875000 0.187500 0.000000
0.906250 0.187500 0.000000
0.937500 0.187500 0.000000
0.968750 0.187500 0.000000
1.000000 0.187500 0.000000
0.000000 0.218750 0.000000
0.031250 0.218750 0.000000
0.062500 0.218750 0.000000
0.093750 0.218750 0.000000
0.125000 0.218750 0.000000
0.156250 0.218750 0.000000
0.187500 0.218750 0.000000
0.218750 0.218750 0.000000
0.250000 0.218750 0.000000
0.281250 0.218750 0.000000
0.312500 0.218750 0.000000
0.343750 0.218750 0.000000
0.375000 0.218750 0.000000
0.406250 0.218750 0.000000
0.437500 0.218750 0.000000
0.468750 0.218750 0.000000
0.500000 0.218750 0.000000
0.531250 0.218750 0.000000
0.562500 0.218750 0.000000
0.593750 0.218750 0.000000
0.625000 0.218750 0.000000
0.656250 0.218750 0.000000
0.687500 0.218750 0.000000
0.718750 0.218750 0.000000
0.750000 0.218750 0.000000
0.781250 0.218750 0.000000
0.812500 0.218750 0.000000
0.843750 0.218750 0.000000
0.875000 0.218750 0.000000
0.906250 0.218750 0.000000
0.937500 0.218750 0.000000
0.968750 0.218750 0.000000
1.000000 0.218750 0.000000
0.000000 0.250000 0.000000
0.031250 0.250000 0.000000
0.062500 0.250000 0.000000
0.093750 0.250000 0.000000
0.125000 0.250000 0.000000
0.607843 0.607843 0.607843
0.647059 0.647059 0.647059
0.218750 0.250000 0.000000
0.250000 0.250000 0.000000
0.281250 0.250000 0.000000
0.312500 0.250000 0.000000
0.343750 0.250000 0.000000
0.375000 0.250000 0.000000
0.406250 0.250000 0.000000
0.437500 0.250000 0.000000
0.468750 0.250000 0.000000
0.500000 0.250000 0.000000
0.531250 0.250000 0.000000
0.562500 0.250000 0.000000
0.593750 0.250000 0.000000
0.625000 0.250000 0.000000
0.656250 0.250000 0.000000
0.687500 0.250000 0.000000
0.718750 0.250000 0.000000
0.750000 0.250000 0.000000
0.781250 0.250000 0.000000
0.812500 0.250000 0.000000
0.843750 0.250000 0.000000
0.875000 0.250000 0.000000
0.906250 0.250000 0.000000
0.937500 0.250000 0.000000
0.968750 0.250000 0.000000
1.000000 0.250000 0.000000
0.000000 0.281250 0.000000
0.031250 0.281250 0.000000
0.062500 0.281250 0.000000
0.093750 0.281250 0.000000
0.125000 0.281250 0.000000
0.156250 0.281250 0.000000
0.187500 0.281250 0.000000
0.218750 0.281250 0.000000
0.250000 0.281250 0.000000
0.281250 0.281250 0.000000
0.312500 0.281250 0.000000
0.343750 0.281250 0.000000
0.375000 0.281250 0.000000
0.406250 0.281250 0.000000
0.437500 0.281250 0.000000
0.468750 0.281250 0.000000
0.500000 0.281250 0.000000
0.531250 0.281250 0.000000
0.562500 0.281250 0.000000
0.593750 0.281250 0.000000
0.625000 0.281250 0.000000
0.656250 0.281250 0.000000
0.687500 0.281250 0.000000
0.718750 0.281250 0.000000
0.750000 0.281250 0.000000
0.781250 0.281250 0.000000
0.812500 0.281250 0.000000
0.843750 0.281250 0.000000
0.875000 0.281250 0.000000
0.906250 0.281250 0.000000
0.937500 0.281250 0.000000
0.968750 0.281250 0.000000
1.000000 0.281250 0.000000
0.000000 0.312500 0.000000
0.031250 0.312500 0.000000
0.062500 0.312500 0.000000
0.093750 0.312500 0.000000
0.125000 0.312500 0.000000
0.156250 0.312500 0.000000
0.745098 0.745098 0.745098
0.218750 0.312500 0.000000
0.250000 0.312500 0.000000
0.281250 0.312500 0.000000
0.312500 0.312500 0.000000
0.343750 0.312500 0.000000
0.375000 0.312500 0.000000
0.406250 0.312500 0.000000
0.437500 0.312500 0.000000
0.468750 0.312500 0.000000
0.500000 0.312500 0.000000
0.531250 0.312500 0.000000
0.562500 0.312500 0.000000
0.593750 0.312500 0.000000
0.625000 0.312500 0.000000
0.656250 0.312500 0.000000
0.687500 0.312500 0.000000
0.718750 0.312500 0.000000
0.750000 0.312500 0.000000
0.781250 0.312500 0.000000
0.812500 0.312500 0.000000
0.843750 0.312500 0.000000
0.875000 0.312500 0.000000
0.906250 0.312500 0.000000
0.937500 0.312500 0.000000
0.968750 0.312500 0.000000
1.000000 0.312500 0.000000
0.000000 0.343750 0.000000
0.031250 0.343750 0.000000
0.062500 0.343750 0.000000
0.093750 0.343750 0.000000
0.125000 0.343750 0.000000
0.156250 0.343750 0.000000
0.187500 0.343750 0.000000
0.218750 0.343750 0.000000
0.380392 0.380392 0.380392
0.281250 0.343750 0.000000
0.312500 0.343750 0.000000
0.343750 0.343750 0.000000
0.375000 0.343750 0.000000
0.406250 0.343750 0.000000
0.437500 0.343750 0.000000
0.468750 0.343750 0.000000
0.500000 0.343750 0.000000
0.531250 0.343750 0.000000
0.562500 0.343750 0.000000
0.593750 0.343750 0.000000
0.625000 0.343750 0.000000
0.656250 0.343750 0.000000
0.687500 0.343750 0.000000
0.718750 0.343750 0.000000
0.750000 0.343750 0.000000
0.781250 0.343750 0.000000
0.812500 0.343750 0.000000
0.843750 0.343750 0.000000
0.875000 0.343750 0.000000
0.906250 0.343750 0.000000
0.937500 0.343750 0.000000
0.968750 0.343750 0.000000
1.000000 0.343750 0.000000
0.000000 0.375000 0.000000
0.031250 0.375000 0.000000
0.062500 0.375000 0.000000
0.093750 0.375000 0.000000
0.125000 0.375000 0.000000
0.156250 0.375000 0.000000
0.187500 0.375000 0.000000
0.218750 0.375000 0.000000
0.250000 0.375000 0.000000
0.281250 0.375000 0.000000
0.388235 0.388235 0.388235
0.343750 0.375000 0.000000
0.375000 0.375000 0.000000
0.406250 0.375000 0.000000
0.437500 0.375000 0.000000
0.468750 0.375000 0.000000
0.500000 0.375000 0.000000
0.531250 0.375000 0.000000
0.562500 0.375000 0.000000
0.593750 0.375000 0.000000
0.625000 0.375000 0.000000
0.656250 0.375000 0.000000
0.687500 0.375000 0.000000
0.718750 0.375000 0.000000
0.750000 0.375000 0.000000
0.781250 0.375000 0.000000
0.812500 0.375000 0.000000
0.843750 0.375000 0.000000
0.875000 0.375000 0.000000
0.906250 0.375000 0.000000
0.937500 0.375000 0.000000
0.968750 0.375000 0.000000
1.000000 0.375000 0.000000
0.000000 0.406250 0.000000
0.031250 0.406250 0.000000
0.062500 0.406250 0.000000
0.093750 0.406250 0.000000
0.125000 0.406250 0.000000
0.156250 0.406250 0.000000
0.187500 0.406250 0.000000
0.218750 0.406250 0.000000
0.250000 0.406250 0.000000
0.281250 0.406250 0.000000
0.312500 0.406250 0.000000
0.396078 0.396078 0.396078
0.409804 0.409804 0.409804
0.406250 0.406250 0.000000
0.437500 0.406250 0.000000
0.468750 0.406250 0.000000
0.500000 0.406250 0.000000
0.531250 0.406250 0.000000
0.562500 0.406250 0.000000
0.593750 0.406250 0.000000
0.625000 0.406250 0.000000
0.656250 0.406250 0.000000
0.687500 0.406250 0.000000
0.718750 0.406250 0.000000
0.750000 0.406250 0.000000
0.781250 0.406250 0.000000
0.812500 0.406250 0.000000
0.843750 0.406250 0.000000
0.875000 0.406250 0.000000
0.906250 0.406250 0.000000
0.937500 0.406250 0.000000
0.968750 0.406250 0.000000
1.000000 0.406250 0.000000
0.000000 0.437500 0.000000
0.031250 0.437500 0.000000
0.062500 0.437500 0.000000
0.093750 0.437500 0.000000
0.125000 0.437500 0.000000
0.156250 0.437500 0.000000
0.187500 0.437500 0.000000
0.218750 0.437500 0.000000
0.250000 0.437500 0.000000
0.281250 0.437500 0.000000
0.312500 0.437500 0.000000
0.343750 0.437500 0.000000
0.375000 0.437500 0.000000
0.406250 0.437500 0.000000
0.437500 0.437500 0.000000
0.468750 0.437500 0.000000
0.500000 0.437500 0.000000
0.531250 0.437500 0.000000
0.562500 0.437500 0.000000
0.593750 0.437500 0.000000
0.625000 0.437500 0.000000
0.656250 0.437500 0.000000
0.687500 0.437500 0.000000
0.718750 0.437500 0.000000
0.750000 0.437500 0.000000
0.781250 0.437500 0.000000
0.812500 0.437500 0.000000
0.843750 0.437500 0.000000
0.875000 0.437500 0.000000
0.906250 0.437500 0.000000
0.937500 0.437500 0.000000
0.968750 0.437500 0.000000
1.000000 0.437500 0.000000
0.000000 0.468750 0.000000
0.031250 0.468750 0.000000
0.062500 0.468750 0.000000
0.093750 0.468750 0.000000
0.125000 0.468750 0.000000
0.156250 0.468750 0.000000
0.886275 0.886275 0.886275
0.218750 0.468750 0.000000
0.250000 0.468750 0.000000
0.281250 0.468750 0.000000
0.312500 0.468750 0.000000
0.343750 0.468750 0.000000
0.375000 0.468750 0.000000
0.406250 0.468750 0.000000
0.437500 0.468750 0.000000
0.468750 0.468750 0.000000
0.500000 0.468750 0.000000
0.531250 0.468750 0.000000
0.562500 0.468750 0.000000
0.593750 0.468750 0.000000
0.625000 0.468750 0.000000
0.656250 0.468750 0.000000
0.687500 0.468750 0.000000
0.718750 0.468750 0.000000
0.750000 0.468750 0.000000
0.781250 0.468750 0.000000
0.812500 0.468750 0.000000
0.843750 0.468750 0.000000
0.875000 0.468750 0.000000
0.906250 0.468750 0.000000
0.937500 0.468750 0.000000
0.968750 0.468750 0.000000
1.000000 0.468750 0.000000
0.000000 0.500000 0.000000
0.031250 0.500000 0.000000
0.062500 0.500000 0.000000
0.093750 0.500000 0.000000
0.125000 0.500000 0.000000
0.156250 0.500000 0.000000
0.187500 0.500000 0.000000
0.218750 0.500000 0.000000
0.250000 0.500000 0.000000
0.281250 0.500000 0.000000
0.312500 0.500000 0.000000
0.343750 0.500000 0.000000
0.375000 0.500000 0.000000
0.406250 0.500000 0.000000
0.437500 0.500000 0.000000
0.468750 0.500000 0.000000
0.500000 0.500000 0.000000
0.531250 0.500000 0.000000
0.562500 0.500000 0.000000
0.593750 0.500000 0.000000
0.625000 0.500000 0.000000
0.656250 0.500000 0.000000
0.687500 0.500000 0.000000
0.718750 0.500000 0.000000
0.750000 0.500000 0.000000
0.781250 0.500000 0.000000
0.812500 0.500000 0.000000
0.843750 0.500000 0.000000
0.875000 0.500000 0.000000
0.906250 0.500000 0.000000
0.937500 0.500000 0.000000
0.968750 0.500000 0.000000
1.000000 0.500000 0.000000
0.000000 0.531250 0.000000
0.031250 0.531250 0.000000
0.062500 0.531250 0.000000
0.093750 0.531250 0.000000
0.125000 0.531250 0.000000
0.156250 0.531250 0.000000
0.187500 0.531250 0.000000
0.218750 0.531250 0.000000
0.250000 0.531250 0.000000
0.281250 0.531250 0.000000
0.312500 0.531250 0.000000
0.343750 0.531250 0.000000
0.375000 0.531250 0.000000
0.406250 0.531250 0.000000
0.437500 0.531250 0.000000
0.468750 0.531250 0.000000
0.500000 0.531250 0.000000
0.531250 0.531250 0.000000
0.562500 0.531250 0.000000
0.593750 0.531250 0.000000
0.625000 0.531250 0.000000
0.656250 0.531250 0.000000
0.687500 0.531250 0.000000
0.718750 0.531250 0.000000
0.750000 0.531250 0.000000
0.781250 0.531250 0.000000
0.812500 0.531250 0.000000
0.843750 0.531250 0.000000
0.875000 0.531250 0.000000
0.906250 0.531250 0.000000
0.937500 0.531250 0.000000
0.968750 0.531250 0.000000
1.000000 0.531250 0.000000
0.000000 0.562500 0.000000
0.031250 0.562500 0.000000
0.062500 0.562500 0.000000
0.093750 0.562500 0.000000
0.125000 0.562500 0.000000
0.156250 0.562500 0.000000
0.187500 0.562500 0.000000
0.218750 0.562500 0.000000
0.250000 0.562500 0.000000
0.281250 0.562500 0.000000
0.312500 0.562500 0.000000
0.343750 0.562500 0.000000
0.375000 0.562500 0.000000
0.406250 0.562500 0.000000
0.437500 0.562500 0.000000
0.468750 0.562500 0.000000
0.500000 0.562500 0.000000
0.531250 0.562500 0.000000
0.562500 0.562500 0.000000
0.593750 0.562500 0.000000
0.625000 0.562500 0.000000
0.656250 0.562500 0.000000
0.687500 0.562500 0.000000
0.718750 0.562500 0.000000
0.750000 0.562500 0.000000
0.781250 0.562500 0.000000
0.812500 0.562500 0.000000
0.843750 0.562500 0.000000
0.875000 0.562500 0.000000
0.906250 0.562500 0.000000
0.937500 0.562500 0.000000
0.968750 0.562500 0.000000
1.000000 0.562500 0.000000
0.000000 0.593750 0.000000
0.031250 0.593750 0.000000
0.062500 0.593750 0.000000
0.093750 0.593750 0.000000
0.125000 0.593750 0.000000
0.156250 0.593750 0.000000
0.187500 0.593750 0.000000
0.218750 0.593750 0.000000
0.250000 0.593750 0.000000
0.281250 0.593750 0.000000
0.312500 0.593750 0.000000
0.343750 0.593750 0.000000
0.375000 0.593750 0.000000
0.406250 0.593750 0.000000
0.437500 0.593750 0.000000
0.468750 0.593750 0.000000
0.500000 0.593750 0.000000
0.531250 0.593750 0.000000
0.562500 0.593750 0.000000
0.593750 0.593750 0.000000
0.625000 0.593750 0.000000
0.656250 0.593750 0.000000
0.687500 0.593750 0.000000
0.718750 0.593750 0.000000
0.750000 0.593750 0.000000
0.781250 0.593750 0.000000
0.812500 0.593750 0.000000
0.843750 0.593750 0.000000
0.875000 0.593750 0.000000
0.906250 0.593750 0.000000
0.937500 0.593750 0.000000
0.968750 0.593750 0.000000
1.000000 0.593750 0.000000
0.000000 0.625000 0.000000
0.031250 0.625000 0.000000
0.062500 0.625000 0.000000
0.093750 0.625000 0.000000
0.125000 0.625000 0.000000
0.156250 0.625000 0.000000
0.187500 0.625000 0.000000
0.218750 0.625000 0.000000
0.250000 0.625000 0.000000
0.281250 0.625000 0.000000
0.312500 0.625000 0.000000
0.343750 0.625000 0.000000
0.375000 0.625000 0.000000
0.406250 0.625000 0.000000
0.437500 0.625000 0.000000
0.468750 0.625000 0.000000
0.500000 0.625000 0.000000
0.531250 0.625000 0.000000
0.562500 0.625000 0.000000
0.593750 0.625000 0.000000
0.625000 0.625000 0.000000
0.656250 0.625000 0.000000
0.687500 0.625000 0.000000
0.718750 0.625000 0.000000
0.750000 0.625000 0.000000
0.781250 0.625000 0.000000
0.812500 0.625000 0.000000
0.843750 0.625000 0.000000
0.875000 0.625000 0.000000
0.906250 0.625000 0.000000
0.937500 0.625000 0.000000
0.968750 0.625000 0.000000
1.000000 0.625000 0.000000
0.000000 0.656250 0.000000
0.031250 0.656250 0.000000
0.062500 0.656250 0.000000
0.093750 0.656250 0.000000
0.125000 0.656250 0.000000
0.156250 0.656250 0.000000
0.187500 0.656250 0.000000
0.218750 0.656250 0.000000
0.250000 0.656250 0.000000
0.281250 0.656250 0.000000
0.312500 0.656250 0.000000
0.343750 0.656250 0.000000
0.375000 0.656250 0.000000
0.406250 0.656250 0.000000
0.437500 0.656250 0.000000
0.468750 0.656250 0.000000
0.500000 0.656250 0.000000
0.531250 0.656250 0.000000
0.562500 0.656250 0.000000
0.593750 0.656250 0.000000
0.625000 0.656250 0.000000
0.656250 0.656250 0.000000
0.687500 0.656250 0.000000
0.718750 0.656250 0.000000
0.750000 0.656250 0.000000
0.781250 0.656250 0.000000
0.812500 0.656250 0.000000
0.843750 0.656250 0.000000
0.875000 0.656250 0.000000
0.472549 0.472549 0.472549
0.937500 0.656250 0.000000
0.968750 0.656250 0.000000
1.000000 0.656250 0.000000
0.000000 0.687500 0.000000
0.031250 0.687500 0.000000
0.062500 0.687500 0.000000
0.093750 0.687500 0.000000
0.125000 0.687500 0.000000
0.156250 0.687500 0.000000
0.187500 0.687500 0.000000
0.218750 0.687500 0.000000
0.250000 0.687500 0.000000
0.281250 0.687500 0.000000
0.312500 0.687500 0.000000
0.343750 0.687500 0.000000
0.375000 0.687500 0.000000
0.406250 0.687500 0.000000
0.437500 0.687500 0.000000
0.468750 0.687500 0.000000
0.500000 0.687500 0.000000
0.531250 0.687500 0.000000
0.562500 0.687500 0.000000
0.593750 0.687500 0.000000
0.625000 0.687500 0.000000
0.656250 0.687500 0.000000
0.687500 0.687500 0.000000
0.718750 0.687500 0.000000
0.750000 0.687500 0.000000
0.781250 0.687500 0.000000
0.812500 0.687500 0.000000
0.843750 0.687500 0.000000
0.875000 0.687500 0.000000
0.906250 0.687500 0.000000
0.517647 0.517647 0.517647
0.551634 0.551634 0.551634
1.000000 0.687500 0.000000
0.000000 0.718750 0.000000
0.031250 0.718750 0.000000
0.062500 0.718750 0.000000
0.093750 0.718750 0.000000
0.125000 0.718750 0.000000
0.156250 0.718750 0.000000
0.187500 0.718750 0.000000
0.218750 0.718750 0.000000
0.250000 0.718750 0.000000
0.281250 0.718750 0.000000
0.312500 0.718750 0.000000
0.343750 0.718750 0.000000
0.375000 0.718750 0.000000
0.406250 0.718750 0.000000
0.437500 0.718750 0.000000
0.468750 0.718750 0.000000
0.500000 0.718750 0.000000
0.531250 0.718750 0.000000
0.562500 0.718750 0.000000
0.593750 0.718750 0.000000
0.625000 0.718750 0.000000
0.656250 0.718750 0.000000
0.687500 0.718750 0.000000
0.718750 0.718750 0.000000
0.750000 0.718750 0.000000
0.781250 0.718750 0.000000
0.812500 0.718750 0.000000
0.843750 0.718750 0.000000
0.875000 0.718750 0.000000
0.906250 0.718750 0.000000
0.525490 0.525490 0.525490
0.498039 0.498039 0.498039
0.537255 0.537255 0.537255
0.000000 0.750000 0.000000
0.031250 0.750000 0.000000
0.062500 0.750000 0.000000
0.093750 0.750000 0.000000
0.125000 0.750000 0.000000
0.156250 0.750000 0.000000
0.187500 0.750000 0.000000
0.218750 0.750000 0.000000
0.250000 0.750000 0.000000
0.281250 0.750000 0.000000
0.312500 0.750000 0.000000
0.343750 0.750000 0.000000
0.375000 0.750000 0.000000
0.406250 0.750000 0.000000
0.437500 0.750000 0.000000
0.468750 0.750000 0.000000
0.500000 0.750000 0.000000
0.531250 0.750000 0.000000
0.562500 0.750000 0.000000
0.593750 0.750000 0.000000
0.625000 0.750000 0.000000
0.656250 0.750000 0.000000
0.687500 0.750000 0.000000
0.718750 0.750000 0.000000
0.750000 0.750000 0.000000
0.781250 0.750000 0.000000
0.812500 0.750000 0.000000
0.843750 0.750000 0.000000
0.875000 0.750000 0.000000
0.906250 0.750000 0.000000
0.937500 0.750000 0.000000
0.568627 0.568627 0.568627
0.544444 0.544444 0.544444
0.000000 0.781250 0.000000
0.031250 0.781250 0.000000
0.062500 0.781250 0.000000
0.093750 0.781250 0.000000
0.125000 0.781250 0.000000
0.156250 0.781250 0.000000
0.187500 0.781250 0.000000
0.218750 0.781250 0.000000
0.250000 0.781250 0.000000
0.281250 0.781250 0.000000
0.312500 0.781250 0.000000
0.343750 0.781250 0.000000
0.375000 0.781250 0.000000
0.406250 0.781250 0.000000
0.437500 0.781250 0.000000
0.468750 0.781250 0.000000
0.500000 0.781250 0.000000
0.531250 0.781250 0.000000
0.562500 0.781250 0.000000
0.593750 0.781250 0.000000
0.625000 0.781250 0.000000
0.656250 0.781250 0.000000
0.687500 0.781250 0.000000
0.718750 0.781250 0.000000
0.750000 0.781250 0.000000
0.781250 0.781250 0.000000
0.812500 0.781250 0.000000
0.843750 0.781250 0.000000
0.875000 0.781250 0.000000
0.906250 0.781250 0.000000
0.937500 0.781250 0.000000
0.968750 0.781250 0.000000
0.565686 0.565686 0.565686
0.000000 0.812500 0.000000
0.031250 0.812500 0.000000
0.062500 0.812500 0.000000
0.093750 0.812500 0.000000
0.125000 0.812500 0.000000
0.156250 0.812500 0.000000
0.187500 0.812500 0.000000
0.218750 0.812500 0.000000
0.250000 0.812500 0.000000
0.281250 0.812500 0.000000
0.312500 0.812500 0.000000
0.343750 0.812500 0.000000
0.375000 0.812500 0.000000
0.406250 0.812500 0.000000
0.437500 0.812500 0.000000
0.468750 0.812500 0.000000
0.500000 0.812500 0.000000
0.531250 0.812500 0.000000
0.562500 0.812500 0.000000
0.593750 0.812500 0.000000
0.625000 0.812500 0.000000
0.656250 0.812500 0.000000
0.687500 0.812500 0.000000
0.718750 0.812500 0.000000
0.750000 0.812500 0.000000
0.781250 0.812500 0.000000
0.812500 0.812500 0.000000
0.843750 0.812500 0.000000
0.875000 0.812500 0.000000
