PiCameraControl/PiCameraControl/LUTs/nir_to_rgb.cube
TITLE "NIR_to_RGB_Restore"
LUT_3D_SIZE 5
0.049715 0.061776 0.069932
0.195125 0.210747 0.227901
0.332236 0.337271 0.346991
0.486233 0.482528 0.474261
0.561976 0.560356 0.522281
0.144502 0.165318 0.187730
0.302070 0.310568 0.323416
0.453610 0.450574 0.449736
0.524507 0.521131 0.498491
0.646414 0.645038 0.589207
0.241970 0.253875 0.267460
0.361771 0.363327 0.369583
0.511587 0.507726 0.492590
0.572266 0.571869 0.525562
0.728337 0.725808 0.659595
0.349845 0.353301 0.361434
0.471167 0.468184 0.461785
0.548305 0.546309 0.511703
0.676276 0.674609 0.614014
0.815216 0.813231 0.749705
0.431705 0.429558 0.430474
0.541852 0.539784 0.508201
0.612529 0.611283 0.560149
0.762159 0.758586 0.687154
0.817216 0.815350 0.750788
0.090812 0.111909 0.132380
0.232442 0.244239 0.257464
0.373082 0.374751 0.380082
0.489775 0.486108 0.476964
0.592833 0.591854 0.545633
0.167611 0.185665 0.203507
0.322639 0.328878 0.339113
0.478341 0.474829 0.471623
0.551498 0.550342 0.512547
0.652313 0.651024 0.594677
0.271553 0.281310 0.293383
0.445444 0.442740 0.442668
0.532758 0.530029 0.503362
0.634955 0.633387 0.581125
0.778335 0.774818 0.703372
0.351078 0.354308 0.361870
0.505984 0.502236 0.490578
0.592902 0.591904 0.544366
0.705482 0.703653 0.640992
0.817216 0.815350 0.750788
0.471167 0.468184 0.461785
0.541852 0.539784 0.508201
0.675745 0.674297 0.615884
0.799040 0.796999 0.733487
0.817216 0.815350 0.750788
0.127487 0.149054 0.170680
0.267900 0.278127 0.290545
0.415261 0.413362 0.415032
0.526318 0.523118 0.499536
0.636359 0.634979 0.581239
0.243203 0.254882 0.267896
0.355440 0.358434 0.365463
0.498923 0.495061 0.487016
0.583996 0.583061 0.537246
0.688665 0.687806 0.625928
0.307497 0.314262 0.323707
0.453802 0.450935 0.449625
0.561436 0.559788 0.520740
0.661348 0.660143 0.603942
0.815767 0.813802 0.750027
0.420875 0.420158 0.422161
0.517372 0.513855 0.496497
0.616111 0.614770 0.563359
0.739561 0.737074 0.669210
0.817216 0.815350 0.750788
0.482647 0.479485 0.470114
0.592902 0.591904 0.544366
0.712521 0.710342 0.645214
0.817216 0.815350 0.750788
0.817216 0.815350 0.750788
0.150596 0.169401 0.186457
0.333075 0.338428 0.347624
0.454971 0.452173 0.450426
0.577700 0.575931 0.534381
0.636359 0.634979 0.581239
0.243203 0.254882 0.267896
0.426889 0.424699 0.425725
0.507188 0.503574 0.491563
0.634636 0.633288 0.580251
0.745790 0.743835 0.675898
0.355440 0.358434 0.365463
0.474460 0.471221 0.466297
0.583808 0.582150 0.539527
0.716601 0.714908 0.649218
0.815767 0.813802 0.750027
0.453802 0.450935 0.449625
0.547909 0.545733 0.514780
0.643992 0.642656 0.588042
0.805630 0.804416 0.742223
0.817216 0.815350 0.750788
0.517372 0.513855 0.496497
0.616111 0.614770 0.563359
0.739561 0.737074 0.669210
0.817216 0.815350 0.750788
0.817216 0.815350 0.750788
0.238746 0.250476 0.263191
0.351843 0.355438 0.362968
0.468888 0.465719 0.461744
0.577700 0.575931 0.534381
0.675575 0.674763 0.615648
0.285132 0.294256 0.305868
0.444424 0.441879 0.441025
0.561436 0.559788 0.520740
0.648261 0.647250 0.591314
0.745790 0.743835 0.675898
0.396383 0.397075 0.400900
0.509185 0.505591 0.492679
0.634636 0.633288 0.580251
0.739215 0.737387 0.670027
0.815767 0.813802 0.750027
0.474460 0.471221 0.466297
0.583808 0.582150 0.539527
0.721039 0.719036 0.652727
0.805630 0.804416 0.742223
0.817216 0.815350 0.750788
0.547909 0.545733 0.514780
0.643992 0.642656 0.588042
0.752638 0.750609 0.681845
0.817216 0.815350 0.750788
0.817216 0.815350 0.750788
