PiCameraControl/PiCameraControl/LUTs/nir_to_rgb.cube
TITLE "NIR_to_RGB_Restore"
LUT_3D_SIZE 33
0.049715 0.061776 0.069932
0.058276 0.070215 0.067868
0.076932 0.091755 0.098170
0.076932 0.091755 0.098170
0.111042 0.131770 0.153115
0.133118 0.152102 0.172495
0.151847 0.172535 0.196864
0.181672 0.198964 0.218444
0.195125 0.210747 0.227901
0.195125 0.210747 0.227901
0.228452 0.240742 0.254699
0.258024 0.268836 0.282560
0.282775 0.292268 0.305552
0.282775 0.292268 0.305552
0.309165 0.316591 0.328633
0.309165 0.316591 0.328633
0.332236 0.337271 0.346991
0.354598 0.356846 0.363651
0.373082 0.374751 0.380082
0.407323 0.405751 0.408002
0.435055 0.432533 0.432793
0.435055 0.432533 0.432793
0.435055 0.432533 0.432793
0.463094 0.459858 0.456949
0.486233 0.482528 0.474261
0.486233 0.482528 0.474261
0.486233 0.482528 0.474261
0.486233 0.482528 0.474261
0.524506 0.521131 0.498491
0.524506 0.521131 0.498491
0.524506 0.521131 0.498491
0.532615 0.530248 0.502401
0.561976 0.560356 0.522281
0.066324 0.078439 0.082015
0.072014 0.083403 0.084985
0.085293 0.098362 0.105275
0.099707 0.121056 0.141215
0.111042 0.131770 0.153115
0.151847 0.172535 0.196864
0.151847 0.172535 0.196864
0.195125 0.210747 0.227901
0.195125 0.210747 0.227901
0.228452 0.240742 0.254699
0.248017 0.258945 0.272333
0.282775 0.292268 0.305552
0.282775 0.292268 0.305552
0.309165 0.316591 0.328633
0.309165 0.316591 0.328633
0.332236 0.337271 0.346991
0.354598 0.356846 0.363651
0.354598 0.356846 0.363651
0.387509 0.387146 0.390890
0.435055 0.432533 0.432793
0.435055 0.432533 0.432793
0.435055 0.432533 0.432793
0.463094 0.459858 0.456949
0.480630 0.477039 0.472249
0.486233 0.482528 0.474261
0.486233 0.482528 0.474261
0.486233 0.482528 0.474261
0.524506 0.521131 0.498491
0.524506 0.521131 0.498491
0.524506 0.521131 0.498491
0.524506 0.521131 0.498491
0.541065 0.538791 0.507019
0.565949 0.564498 0.525142
0.066324 0.078439 0.082015
0.087314 0.105447 0.118094
0.087314 0.105447 0.118094
0.112956 0.134257 0.156368
0.151847 0.172535 0.196864
0.151847 0.172535 0.196864
0.174957 0.192883 0.212641
0.195125 0.210747 0.227901
0.228452 0.240742 0.254699
0.248017 0.258945 0.272333
0.269196 0.279323 0.293067
0.282775 0.292268 0.305552
0.282775 0.292268 0.305552
0.309165 0.316591 0.328633
0.309165 0.316591 0.328633
0.332236 0.337271 0.346991
0.354598 0.356846 0.363651
0.387509 0.387146 0.390890
0.407323 0.405751 0.408002
0.435055 0.432533 0.432793
0.435055 0.432533 0.432793
0.463094 0.459858 0.456949
0.472272 0.468843 0.465292
0.486233 0.482528 0.474261
0.486233 0.482528 0.474261
0.486233 0.482528 0.474261
0.511388 0.507920 0.490914
0.524506 0.521131 0.498491
0.524506 0.521131 0.498491
0.524506 0.521131 0.498491
0.541065 0.538791 0.507019
0.565949 0.564498 0.525142
0.580413 0.579574 0.534035
0.087314 0.105447 0.118094
0.087314 0.105447 0.118094
0.094673 0.113147 0.128824
0.131685 0.154690 0.180737
0.151847 0.172535 0.196864
0.170555 0.188664 0.208280
0.187773 0.203511 0.219634
0.223516 0.236081 0.249763
0.248017 0.258945 0.272333
0.269196 0.279323 0.293067
0.269196 0.279323 0.293067
0.282775 0.292268 0.305552
0.309165 0.316591 0.328633
0.309165 0.316591 0.328633
0.332236 0.337271 0.346991
0.354598 0.356846 0.363651
0.387509 0.387146 0.390890
0.407323 0.405751 0.408002
0.435055 0.432533 0.432793
0.435055 0.432533 0.432793
0.453610 0.450574 0.449736
0.472272 0.468843 0.465292
0.472272 0.468843 0.465292
0.486233 0.482528 0.474261
0.486233 0.482528 0.474261
0.508599 0.504616 0.490198
0.524506 0.521131 0.498491
0.524506 0.521131 0.498491
0.524506 0.521131 0.498491
0.541065 0.538791 0.507019
0.541065 0.538791 0.507019
0.580413 0.579574 0.534035
0.580413 0.579574 0.534035
0.087314 0.105447 0.118094
0.094673 0.113147 0.128824
0.131685 0.154690 0.180737
0.131685 0.154690 0.180737
0.170555 0.188664 0.208280
0.187773 0.203511 0.219634
0.207942 0.221375 0.234894
0.223516 0.236081 0.249763
0.248017 0.258945 0.272333
0.269196 0.279323 0.293067
0.282775 0.292268 0.305552
0.298472 0.307573 0.320920
0.309165 0.316591 0.328633
0.332236 0.337271 0.346991
0.332236 0.337271 0.346991
0.354598 0.356846 0.363651
0.387509 0.387146 0.390890
0.407323 0.405751 0.408002
0.435055 0.432533 0.432793
0.453610 0.450574 0.449736
0.453610 0.450574 0.449736
0.472272 0.468843 0.465292
0.486233 0.482528 0.474261
0.486233 0.482528 0.474261
0.486233 0.482528 0.474261
0.524507 0.521131 0.498491
0.524506 0.521131 0.498491
0.524506 0.521131 0.498491
0.541065 0.538791 0.507019
0.541065 0.538791 0.507019
0.565949 0.564498 0.525142
0.580413 0.579574 0.534035
0.580413 0.579574 0.534035
0.094673 0.113147 0.128824
0.113402 0.133580 0.153193
0.131685 0.154690 0.180737
0.164664 0.183163 0.203857
0.187773 0.203511 0.219634
0.187773 0.203511 0.219634
0.227506 0.239578 0.252528
0.248017 0.258945 0.272333
0.269196 0.279323 0.293067
0.269196 0.279323 0.293067
0.298472 0.307573 0.320920
0.309165 0.316591 0.328633
0.321406 0.327871 0.338678
0.332236 0.337271 0.346991
0.354598 0.356846 0.363651
0.387509 0.387146 0.390890
0.407323 0.405751 0.408002
0.435055 0.432533 0.432793
0.453610 0.450574 0.449736
0.453610 0.450574 0.449736
0.472272 0.468843 0.465292
0.472272 0.468843 0.465292
0.486233 0.482528 0.474261
0.486233 0.482528 0.474261
0.508599 0.504616 0.490198
0.524507 0.521131 0.498491
0.524506 0.521131 0.498491
0.524507 0.521131 0.498491
0.541065 0.538791 0.507019
0.559502 0.558008 0.518772
0.580413 0.579574 0.534035
0.580413 0.579574 0.534035
0.611626 0.610879 0.558861
0.113402 0.133580 0.153193
0.144502 0.165318 0.187730
0.144502 0.165318 0.187730
0.164664 0.183163 0.203857
0.187773 0.203511 0.219634
0.212399 0.225781 0.239598
0.227506 0.239578 0.252528
0.269196 0.279323 0.293067
0.269196 0.279323 0.293067
0.284893 0.294627 0.308435
0.298472 0.307573 0.320920
0.321406 0.327871 0.338678
0.332236 0.337271 0.346991
0.339406 0.343320 0.351744
0.354598 0.356846 0.363651
0.407323 0.405752 0.408002
0.407323 0.405751 0.408002
0.453610 0.450574 0.449736
0.453610 0.450574 0.449736
0.453610 0.450574 0.449736
0.472272 0.468843 0.465292
0.486233 0.482528 0.474261
0.486233 0.482528 0.474261
0.508599 0.504616 0.490198
0.524507 0.521131 0.498491
0.524507 0.521131 0.498491
0.524507 0.521131 0.498491
0.541065 0.538791 0.507019
0.541065 0.538791 0.507019
0.580413 0.579574 0.534035
0.580413 0.579574 0.534035
0.604508 0.603626 0.553810
0.630402 0.629118 0.575442
0.113402 0.133580 0.153193
0.144502 0.165318 0.187730
0.159219 0.177950 0.196380
0.187773 0.203511 0.219634
0.207338 0.221713 0.237268
0.227506 0.239578 0.252528
0.236899 0.248645 0.262169
0.269196 0.279323 0.293067
0.284893 0.294627 0.308435
0.302070 0.310568 0.323416
0.321406 0.327871 0.338678
0.321406 0.327871 0.338678
0.339405 0.343320 0.351744
0.358195 0.359841 0.366146
0.382765 0.382423 0.386654
0.407323 0.405751 0.408002
0.435055 0.432533 0.432793
0.453610 0.450574 0.449736
0.453610 0.450574 0.449736
0.472272 0.468843 0.465292
0.472272 0.468843 0.465292
0.486233 0.482528 0.474261
0.508599 0.504616 0.490198
0.508599 0.504616 0.490198
0.524507 0.521131 0.498491
0.524507 0.521131 0.498491
0.541065 0.538791 0.507019
0.541065 0.538791 0.507019
0.559502 0.558008 0.518772
0.580413 0.579574 0.534035
0.580413 0.579574 0.534035
0.611626 0.610879 0.558861
0.630402 0.629118 0.575442
0.144502 0.165318 0.187730
0.144502 0.165318 0.187730
0.187773 0.203511 0.219634
0.207338 0.221713 0.237268
0.207338 0.221713 0.237268
0.236899 0.248645 0.262169
0.262481 0.273242 0.287265
0.284893 0.294627 0.308435
0.302070 0.310568 0.323416
0.310713 0.318852 0.330965
0.321406 0.327871 0.338678
0.335833 0.340266 0.349486
0.339405 0.343320 0.351744
0.376963 0.376852 0.381490
0.396776 0.395458 0.398601
0.407323 0.405751 0.408002
0.453610 0.450574 0.449736
0.453610 0.450574 0.449736
0.453610 0.450574 0.449736
0.472272 0.468843 0.465292
0.486233 0.482528 0.474261
0.502146 0.498091 0.486696
0.508599 0.504616 0.490198
0.524507 0.521131 0.498491
0.524507 0.521131 0.498491
0.541065 0.538791 0.507019
0.541065 0.538791 0.507019
0.559502 0.558008 0.518772
0.559502 0.558008 0.518772
0.580413 0.579574 0.534035
0.604508 0.603626 0.553810
0.630402 0.629118 0.575442
0.646414 0.645038 0.589207
0.144502 0.165318 0.187730
0.159219 0.177950 0.196380
0.207338 0.221713 0.237268
0.207338 0.221713 0.237268
0.236899 0.248645 0.262169
0.258079 0.269023 0.282903
0.284893 0.294627 0.308435
0.284893 0.294627 0.308435
0.302070 0.310568 0.323416
0.319067 0.325824 0.336856
0.335833 0.340266 0.349486
0.335833 0.340266 0.349486
0.361771 0.363327 0.369583
0.376963 0.376852 0.381490
0.410899 0.409237 0.411439
0.453610 0.450574 0.449736
0.453610 0.450574 0.449736
0.453610 0.450574 0.449736
0.472272 0.468843 0.465292
0.472272 0.468843 0.465292
0.502146 0.498091 0.486696
0.508599 0.504616 0.490198
0.520328 0.516461 0.496718
0.524507 0.521131 0.498491
0.524507 0.521131 0.498491
0.541065 0.538791 0.507019
0.559502 0.558008 0.518772
0.559502 0.558008 0.518772
0.580413 0.579574 0.534035
0.604508 0.603626 0.553810
0.630402 0.629118 0.575442
0.630402 0.629118 0.575442
0.646414 0.645038 0.589207
0.144502 0.165318 0.187730
0.207338 0.221713 0.237268
0.207338 0.221713 0.237268
0.207338 0.221713 0.237268
0.236899 0.248645 0.262169
0.258079 0.269023 0.282903
0.284893 0.294627 0.308435
0.297134 0.305907 0.318480
0.319067 0.325824 0.336856
0.335833 0.340266 0.349486
0.335833 0.340266 0.349486
0.361771 0.363327 0.369583
0.376963 0.376852 0.381490
0.396776 0.395458 0.398601
0.425878 0.423792 0.424945
0.453610 0.450574 0.449736
0.453610 0.450574 0.449736
0.453610 0.450574 0.449736
0.472272 0.468843 0.465292
0.502146 0.498091 0.486696
0.502146 0.498091 0.486696
0.520328 0.516461 0.496718
0.520328 0.516461 0.496718
0.531567 0.528307 0.502052
0.541065 0.538791 0.507019
0.541065 0.538791 0.507019
0.559502 0.558008 0.518772
0.559502 0.558008 0.518772
0.604508 0.603626 0.553810
0.604508 0.603626 0.553809
0.630402 0.629118 0.575442
0.646414 0.645038 0.589207
0.646414 0.645038 0.589207
0.167611 0.185665 0.203507
0.207338 0.221713 0.237268
0.207338 0.221713 0.237268
0.236899 0.248645 0.262169
0.258079 0.269023 0.282903
0.284893 0.294627 0.308435
0.297134 0.305907 0.318480
0.297134 0.305907 0.318480
0.335833 0.340266 0.349486
0.335833 0.340266 0.349486
0.361771 0.363327 0.369583
0.361771 0.363327 0.369583
0.386340 0.385908 0.390090
0.415331 0.413499 0.415545
0.433816 0.431403 0.431975
0.453610 0.450574 0.449736
0.453610 0.450574 0.449736
0.471146 0.467755 0.465036
0.488185 0.484406 0.477726
0.502146 0.498091 0.486696
0.520328 0.516461 0.496718
0.520328 0.516461 0.496718
0.520328 0.516461 0.496718
0.531567 0.528307 0.502052
0.541065 0.538791 0.507019
0.559502 0.558008 0.518772
0.559502 0.558008 0.518772
0.580413 0.579574 0.534035
0.604508 0.603626 0.553810
0.630402 0.629118 0.575442
0.646414 0.645038 0.589207
0.646414 0.645038 0.589207
0.661879 0.660455 0.602072
0.207338 0.221713 0.237268
0.207338 0.221713 0.237268
0.207338 0.221713 0.237268
0.241970 0.253875 0.267460
0.258079 0.269023 0.282903
0.297134 0.305907 0.318480
0.297134 0.305907 0.318480
0.319067 0.325824 0.336856
0.335833 0.340266 0.349486
0.335833 0.340266 0.349486
0.361771 0.363327 0.369583
0.386340 0.385908 0.390090
0.415331 0.413499 0.415545
0.415332 0.413499 0.415544
0.443064 0.440280 0.440335
0.453610 0.450574 0.449736
0.469984 0.466634 0.464666
0.487059 0.483318 0.477471
0.502146 0.498091 0.486696
0.513875 0.509935 0.493216
0.522325 0.518478 0.497834
0.522325 0.518478 0.497834
0.531567 0.528307 0.502052
0.541065 0.538791 0.507019
0.559502 0.558008 0.518772
0.559502 0.558008 0.518772
0.567618 0.566446 0.523940
0.604508 0.603626 0.553810
0.630402 0.629118 0.575442
0.630402 0.629118 0.575442
0.646414 0.645038 0.589207
0.661879 0.660455 0.602072
0.661879 0.660455 0.602072
0.207338 0.221713 0.237268
0.207338 0.221713 0.237268
0.241970 0.253875 0.267460
0.258079 0.269023 0.282903
0.297134 0.305907 0.318480
0.297134 0.305907 0.318480
0.297134 0.305907 0.318480
0.335833 0.340266 0.349486
0.335833 0.340266 0.349486
0.361771 0.363327 0.369583
0.361771 0.363327 0.369583
0.415331 0.413499 0.415545
0.415331 0.413499 0.415545
0.443064 0.440280 0.440335
0.443064 0.440280 0.440335
0.469984 0.466634 0.464666
0.482774 0.479091 0.475729
0.487059 0.483318 0.477471
0.513875 0.509935 0.493216
0.522325 0.518478 0.497834
0.522325 0.518478 0.497834
0.522325 0.518478 0.497834
0.531567 0.528307 0.502052
0.559502 0.558008 0.518772
0.567618 0.566446 0.523940
0.567618 0.566446 0.523940
0.588529 0.588012 0.539203
0.604508 0.603626 0.553809
0.630402 0.629118 0.575442
0.639967 0.638548 0.582837
0.646414 0.645038 0.589207
0.661879 0.660455 0.602072
0.703916 0.701783 0.637641
0.207338 0.221713 0.237268
0.207338 0.221713 0.237268
0.241970 0.253875 0.267460
0.270320 0.280303 0.292948
0.297134 0.305907 0.318480
0.297134 0.305907 0.318480
0.325141 0.331247 0.341774
0.335833 0.340266 0.349486
0.361771 0.363327 0.369583
0.361771 0.363327 0.369583
0.415331 0.413499 0.415545
0.415331 0.413499 0.415545
0.415332 0.413499 0.415544
0.443064 0.440280 0.440335
0.465239 0.461911 0.460429
0.482774 0.479091 0.475729
0.485897 0.482197 0.477100
0.509207 0.505266 0.490258
0.522325 0.518478 0.497834
0.522325 0.518478 0.497834
0.522325 0.518478 0.497834
0.533426 0.530426 0.502958
0.545508 0.543685 0.509729
0.567618 0.566446 0.523940
0.567618 0.566446 0.523940
0.567618 0.566446 0.523940
0.594502 0.593802 0.544431
0.630402 0.629118 0.575442
0.639967 0.638548 0.582837
0.639967 0.638548 0.582837
0.661879 0.660455 0.602072
0.661879 0.660455 0.602072
0.703916 0.701783 0.637641
0.207338 0.221713 0.237268
0.241970 0.253875 0.267460
0.270320 0.280303 0.292948
0.297134 0.305907 0.318480
0.297134 0.305907 0.318480
0.325141 0.331247 0.341774
0.335833 0.340266 0.349486
0.349845 0.353301 0.361434
0.361771 0.363327 0.369583
0.361771 0.363327 0.369583
0.415331 0.413499 0.415545
0.415332 0.413499 0.415544
0.443064 0.440280 0.440335
0.459437 0.456340 0.455265
0.482774 0.479091 0.475729
0.485897 0.482197 0.477100
0.502442 0.498656 0.487875
0.522325 0.518478 0.497834
0.522325 0.518478 0.497834
0.522325 0.518478 0.497834
0.522325 0.518478 0.497834
0.548305 0.546309 0.511703
0.567618 0.566446 0.523940
0.567618 0.566446 0.523940
0.567618 0.566446 0.523940
0.594502 0.593802 0.544431
0.607305 0.606251 0.555784
0.639967 0.638548 0.582837
0.639967 0.638548 0.582837
0.653361 0.651761 0.594559
0.661879 0.660455 0.602072
0.703916 0.701783 0.637641
0.713453 0.710728 0.645815
0.241970 0.253875 0.267460
0.270320 0.280303 0.292948
0.270320 0.280303 0.292948
0.297134 0.305907 0.318480
0.297134 0.305907 0.318480
0.325141 0.331247 0.341774
0.349845 0.353301 0.361434
0.361771 0.363327 0.369583
0.361771 0.363327 0.369583
0.415331 0.413499 0.415545
0.415331 0.413499 0.415545
0.415332 0.413499 0.415544
0.459437 0.456340 0.455265
0.459437 0.456340 0.455265
0.485897 0.482197 0.477100
0.497626 0.494041 0.483621
0.511587 0.507726 0.492590
0.522325 0.518478 0.497834
0.522325 0.518478 0.497834
0.522325 0.518478 0.497834
0.548305 0.546309 0.511703
0.548305 0.546309 0.511703
0.567618 0.566446 0.523940
0.567618 0.566446 0.523940
0.572266 0.571869 0.525562
0.594502 0.593802 0.544431
0.639967 0.638548 0.582837
0.639967 0.638548 0.582837
0.653361 0.651761 0.594559
0.653361 0.651761 0.594559
0.703916 0.701783 0.637641
0.713453 0.710728 0.645815
0.728337 0.725808 0.659595
0.241970 0.253875 0.267460
0.270320 0.280303 0.292948
0.297134 0.305907 0.318480
0.297134 0.305907 0.318480
0.325141 0.331247 0.341774
0.349845 0.353301 0.361434
0.349845 0.353301 0.361434
0.361771 0.363327 0.369583
0.390762 0.390917 0.395037
0.415331 0.413499 0.415545
0.415332 0.413499 0.415544
0.445444 0.442740 0.442668
0.459437 0.456340 0.455265
0.485897 0.482197 0.477100
0.497626 0.494041 0.483621
0.497626 0.494041 0.483621
0.522325 0.518478 0.497834
0.522325 0.518478 0.497834
0.522325 0.518478 0.497834
0.548305 0.546309 0.511703
0.548305 0.546309 0.511703
0.558121 0.555962 0.518974
0.567618 0.566446 0.523940
0.572266 0.571869 0.525562
0.595476 0.594735 0.544555
0.614252 0.612974 0.561136
0.640941 0.639481 0.582961
0.653361 0.651761 0.594559
0.653361 0.651761 0.594559
0.653361 0.651761 0.594559
0.713453 0.710728 0.645815
0.713453 0.710728 0.645815
0.744361 0.740871 0.671668
0.270320 0.280303 0.292948
0.270320 0.280303 0.292948
0.297134 0.305907 0.318480
0.297134 0.305907 0.318480
0.325141 0.331247 0.341774
0.349845 0.353301 0.361434
0.361771 0.363327 0.369583
0.390762 0.390917 0.395037
0.415331 0.413499 0.415545
0.415332 0.413499 0.415544
0.431705 0.429558 0.430474
0.459437 0.456340 0.455265
0.485897 0.482197 0.477100
0.497626 0.494041 0.483621
0.497626 0.494041 0.483621
0.515560 0.511867 0.495451
0.522325 0.518478 0.497834
0.522325 0.518478 0.497834
0.530946 0.528042 0.502317
0.548305 0.546309 0.511703
0.548305 0.546309 0.511703
0.564158 0.562752 0.521652
0.572266 0.571869 0.525562
0.592779 0.592111 0.543443
0.612529 0.611283 0.560149
0.633824 0.632229 0.577910
0.653361 0.651761 0.594559
0.653361 0.651761 0.594559
0.653361 0.651761 0.594559
0.698877 0.697213 0.634502
0.713453 0.710728 0.645815
0.744361 0.740871 0.671668
0.744361 0.740871 0.671668
0.270320 0.280303 0.292948
0.297134 0.305907 0.318480
0.297134 0.305907 0.318480
0.325141 0.331247 0.341774
0.349845 0.353301 0.361434
0.349845 0.353301 0.361434
0.361771 0.363327 0.369583
0.390762 0.390917 0.395037
0.415331 0.413499 0.415545
0.431705 0.429558 0.430474
0.445444 0.442740 0.442668
0.459437 0.456340 0.455265
0.497626 0.494041 0.483621
0.497626 0.494041 0.483621
0.515560 0.511867 0.495451
0.515560 0.511867 0.495451
0.522325 0.518478 0.497834
0.530946 0.528042 0.502317
0.548305 0.546309 0.511703
0.548305 0.546309 0.511703
0.558121 0.555962 0.518974
0.564158 0.562752 0.521652
0.572266 0.571869 0.525562
0.612529 0.611283 0.560149
0.617845 0.616614 0.563303
0.640941 0.639481 0.582961
0.653361 0.651761 0.594559
0.653361 0.651761 0.594559
0.676276 0.674609 0.614014
0.703316 0.701341 0.638010
0.744361 0.740871 0.671668
0.744361 0.740871 0.671668
0.744361 0.740871 0.671668
0.270320 0.280303 0.292948
0.297134 0.305907 0.318480
0.313901 0.320349 0.331110
0.349845 0.353301 0.361434
0.349845 0.353301 0.361434
0.361771 0.363327 0.369583
0.390762 0.390917 0.395037
0.415331 0.413499 0.415545
0.431705 0.429558 0.430474
0.431705 0.429558 0.430474
0.459437 0.456340 0.455265
0.497626 0.494041 0.483621
0.497626 0.494041 0.483621
0.497626 0.494041 0.483621
0.515560 0.511867 0.495451
0.522325 0.518478 0.497834
0.530946 0.528042 0.502317
0.548305 0.546309 0.511703
0.548305 0.546309 0.511703
0.548305 0.546309 0.511703
0.564158 0.562752 0.521652
0.572266 0.571869 0.525562
0.612529 0.611283 0.560149
0.612529 0.611283 0.560149
0.617845 0.616614 0.563303
0.653361 0.651761 0.594559
0.653361 0.651761 0.594559
0.676276 0.674609 0.614014
0.703316 0.701341 0.638010
0.744361 0.740871 0.671668
0.744361 0.740871 0.671668
0.744361 0.740871 0.671668
0.760159 0.756466 0.686071
0.297134 0.305907 0.318480
0.297134 0.305907 0.318480
0.349845 0.353301 0.361434
0.349845 0.353301 0.361434
0.349845 0.353301 0.361434
0.390762 0.390917 0.395037
0.390762 0.390917 0.395037
0.431705 0.429558 0.430474
0.431705 0.429558 0.430474
0.445444 0.442740 0.442668
0.466102 0.463026 0.459340
0.497626 0.494041 0.483621
0.497626 0.494041 0.483621
0.515560 0.511867 0.495451
0.515560 0.511867 0.495451
0.530946 0.528042 0.502317
0.548305 0.546309 0.511703
0.548305 0.546309 0.511703
0.548305 0.546309 0.511703
0.562769 0.561385 0.520595
0.564158 0.562752 0.521652
0.612529 0.611283 0.560149
0.612529 0.611283 0.560149
0.617845 0.616614 0.563303
0.640941 0.639481 0.582961
0.653361 0.651761 0.594559
0.676276 0.674609 0.614014
0.676276 0.674609 0.614014
0.703316 0.701341 0.638011
0.760159 0.756466 0.686071
0.760159 0.756466 0.686071
0.760159 0.756466 0.686071
0.802138 0.799697 0.737070
0.297134 0.305907 0.318480
0.313901 0.320349 0.331110
0.349845 0.353301 0.361434
0.349845 0.353301 0.361434
0.390762 0.390917 0.395037
0.390762 0.390917 0.395037
0.431705 0.429558 0.430474
0.431705 0.429558 0.430474
0.431705 0.429558 0.430474
0.466102 0.463026 0.459340
0.497626 0.494041 0.483621
0.497626 0.494041 0.483621
0.497626 0.494041 0.483621
0.515560 0.511867 0.495451
0.530946 0.528042 0.502317
0.537203 0.534361 0.506579
0.548305 0.546309 0.511703
0.548305 0.546309 0.511703
0.548305 0.546309 0.511703
0.562769 0.561385 0.520595
0.612529 0.611283 0.560149
0.612529 0.611283 0.560149
0.612529 0.611283 0.560149
0.632100 0.630538 0.576922
0.651637 0.650070 0.593572
0.676276 0.674609 0.614014
0.676276 0.674609 0.614014
0.703316 0.701341 0.638011
0.734224 0.731484 0.663864
0.760159 0.756466 0.686071
0.760159 0.756466 0.686071
0.760159 0.756466 0.686071
0.802138 0.799697 0.737070
0.313901 0.320349 0.331110
0.349845 0.353301 0.361434
0.349845 0.353301 0.361434
0.349845 0.353301 0.361434
0.390762 0.390917 0.395037
0.390762 0.390917 0.395037
0.431705 0.429558 0.430474
0.431705 0.429558 0.430474
0.466102 0.463026 0.459340
0.497626 0.494041 0.483621
0.497626 0.494041 0.483621
0.497626 0.494041 0.483621
0.515560 0.511867 0.495451
0.515560 0.511867 0.495451
0.537203 0.534361 0.506579
0.548305 0.546309 0.511703
0.548305 0.546309 0.511703
0.548305 0.546309 0.511703
0.562769 0.561385 0.520595
0.592016 0.591041 0.542267
0.612529 0.611283 0.560149
0.612529 0.611283 0.560149
0.617845 0.616614 0.563303
0.632100 0.630538 0.576922
0.676276 0.674609 0.614014
0.676276 0.674609 0.614014
0.676276 0.674609 0.614014
0.734224 0.731484 0.663864
0.760159 0.756466 0.686071
0.760159 0.756466 0.686071
0.760159 0.756466 0.686071
0.802138 0.799697 0.737070
0.802138 0.799697 0.737070
0.349845 0.353301 0.361434
0.349845 0.353301 0.361434
0.349845 0.353301 0.361434
0.390762 0.390917 0.395037
0.390762 0.390917 0.395037
0.431705 0.429558 0.430474
0.431705 0.429558 0.430474
0.445444 0.442740 0.442668
0.471167 0.468184 0.461785
0.497626 0.494041 0.483621
0.497626 0.494041 0.483621
0.515560 0.511867 0.495451
0.515560 0.511867 0.495451
0.537203 0.534361 0.506579
0.548305 0.546309 0.511703
0.548305 0.546309 0.511703
0.548305 0.546309 0.511703
0.562769 0.561385 0.520595
0.562769 0.561385 0.520595
0.612529 0.611283 0.560149
0.612529 0.611283 0.560149
0.612529 0.611283 0.560149
0.628541 0.627204 0.573913
0.651637 0.650070 0.593572
0.676276 0.674609 0.614014
0.676276 0.674609 0.614014
0.730699 0.727872 0.660979
0.760159 0.756466 0.686071
0.760159 0.756466 0.686071
0.760159 0.756466 0.686071
0.760159 0.756466 0.686071
0.802138 0.799697 0.737070
0.815216 0.813231 0.749705
0.349845 0.353301 0.361434
0.349845 0.353301 0.361434
0.390762 0.390917 0.395037
0.390762 0.390917 0.395037
0.431705 0.429558 0.430474
0.431705 0.429558 0.430474
0.431705 0.429558 0.430474
0.471167 0.468184 0.461785
0.497626 0.494041 0.483621
0.497626 0.494041 0.483621
0.497626 0.494041 0.483621
0.515560 0.511867 0.495451
0.537203 0.534361 0.506579
0.537203 0.534361 0.506579
0.548305 0.546309 0.511703
0.548305 0.546309 0.511703
0.548305 0.546309 0.511703
0.562769 0.561385 0.520595
0.612529 0.611283 0.560149
0.612529 0.611283 0.560149
0.612529 0.611283 0.560149
0.628541 0.627204 0.573913
0.628541 0.627204 0.573913
0.681061 0.679628 0.619038
0.681061 0.679628 0.619038
0.703660 0.701140 0.636983
0.730700 0.727872 0.660979
0.760159 0.756466 0.686071
0.760159 0.756466 0.686071
0.760159 0.756466 0.686071
0.802138 0.799697 0.737070
0.802138 0.799697 0.737070
0.815216 0.813231 0.749705
0.349845 0.353301 0.361434
0.349845 0.353301 0.361434
0.390762 0.390917 0.395037
0.390762 0.390917 0.395037
0.431705 0.429558 0.430474
0.431705 0.429558 0.430474
0.471167 0.468184 0.461785
0.471167 0.468184 0.461785
0.497626 0.494041 0.483621
0.497626 0.494041 0.483621
0.515560 0.511867 0.495451
0.515560 0.511867 0.495451
0.537203 0.534361 0.506579
0.548305 0.546309 0.511703
0.548305 0.546309 0.511703
0.548305 0.546309 0.511703
0.562769 0.561385 0.520595
0.592016 0.591041 0.542267
0.612529 0.611283 0.560149
0.612529 0.611283 0.560149
0.612529 0.611283 0.560149
0.628541 0.627204 0.573913
0.681061 0.679628 0.619038
0.681061 0.679628 0.619038
0.703660 0.701140 0.636983
0.728080 0.725164 0.658937
0.760159 0.756466 0.686071
0.760159 0.756466 0.686071
0.760159 0.756466 0.686071
