PiCameraControl/PiCameraControl/LUTs/nir_simulation.cube
TITLE "NIR_Simulation"
LUT_3D_SIZE 9
0.116571 0.116571 0.116571
0.254902 0.254902 0.254902
0.250000 0.000000 0.000000
0.375000 0.000000 0.000000
0.500000 0.000000 0.000000
0.625000 0.000000 0.000000
0.750000 0.000000 0.000000
0.875000 0.000000 0.000000
1.000000 0.000000 0.000000
0.000000 0.125000 0.000000
0.537255 0.537255 0.537255
0.250000 0.125000 0.000000
0.375000 0.125000 0.000000
0.500000 0.125000 0.000000
0.625000 0.125000 0.000000
0.750000 0.125000 0.000000
0.875000 0.125000 0.000000
1.000000 0.125000 0.000000
0.000000 0.250000 0.000000
0.125000 0.250000 0.000000
0.250000 0.250000 0.000000
0.375000 0.250000 0.000000
0.500000 0.250000 0.000000
0.625000 0.250000 0.000000
0.750000 0.250000 0.000000
0.875000 0.250000 0.000000
1.000000 0.250000 0.000000
0.000000 0.375000 0.000000
0.125000 0.375000 0.000000
0.250000 0.375000 0.000000
0.375000 0.375000 0.000000
0.500000 0.375000 0.000000
0.625000 0.375000 0.000000
0.750000 0.375000 0.000000
0.875000 0.375000 0.000000
1.000000 0.375000 0.000000
0.000000 0.500000 0.000000
0.125000 0.500000 0.000000
0.250000 0.500000 0.000000
0.375000 0.500000 0.000000
0.500000 0.500000 0.000000
0.625000 0.500000 0.000000
0.750000 0.500000 0.000000
0.875000 0.500000 0.000000
1.000000 0.500000 0.000000
0.000000 0.625000 0.000000
0.125000 0.625000 0.000000
0.250000 0.625000 0.000000
0.375000 0.625000 0.000000
0.500000 0.625000 0.000000
0.625000 0.625000 0.000000
0.750000 0.625000 0.000000
0.875000 0.625000 0.000000
1.000000 0.625000 0.000000
0.000000 0.750000 0.000000
0.125000 0.750000 0.000000
0.250000 0.750000 0.000000
0.375000 0.750000 0.000000
0.500000 0.750000 0.000000
0.625000 0.750000 0.000000
0.750000 0.750000 0.000000
0.875000 0.750000 0.000000
0.544444 0.544444 0.544444
0.000000 0.875000 0.000000
0.125000 0.875000 0.000000
0.250000 0.875000 0.000000
0.375000 0.875000 0.000000
0.500000 0.875000 0.000000
0.625000 0.875000 0.000000
0.750000 0.875000 0.000000
0.875000 0.875000 0.000000
1.000000 0.875000 0.000000
0.000000 1.000000 0.000000
0.125000 1.000000 0.000000
0.250000 1.000000 0.000000
0.375000 1.000000 0.000000
0.500000 1.000000 0.000000
0.625000 1.000000 0.000000
0.750000 1.000000 0.000000
0.875000 1.000000 0.000000
1.000000 1.000000 0.000000
0.043137 0.043137 0.043137
0.125000 0.000000 0.125000
0.250000 0.000000 0.125000
0.375000 0.000000 0.125000
0.500000 0.000000 0.125000
0.625000 0.000000 0.125000
0.750000 0.000000 0.125000
0.875000 0.000000 0.125000
1.000000 0.000000 0.125000
0.171895 0.171895 0.171895
0.238755 0.238755 0.238755
0.290925 0.290925 0.290925
0.318500 0.318500 0.318500
0.384314 0.384314 0.384314
0.625000 0.125000 0.125000
0.750000 0.125000 0.125000
0.875000 0.125000 0.125000
1.000000 0.125000 0.125000
0.000000 0.250000 0.125000
0.602445 0.602445 0.602445
0.602201 0.602201 0.602201
0.564463 0.564463 0.564463
0.548148 0.548148 0.548148
0.625000 0.250000 0.125000
0.750000 0.250000 0.125000
0.875000 0.250000 0.125000
1.000000 0.250000 0.125000
0.000000 0.375000 0.125000
0.125000 0.375000 0.125000
0.785621 0.785621 0.785621
0.757184 0.757184 0.757184
0.740272 0.740272 0.740272
0.610458 0.610458 0.610458
0.750000 0.375000 0.125000
0.875000 0.375000 0.125000
1.000000 0.375000 0.125000
0.000000 0.500000 0.125000
0.125000 0.500000 0.125000
0.250000 0.500000 0.125000
0.803922 0.803922 0.803922
0.862431 0.862431 0.862431
0.523529 0.523529 0.523529
0.847059 0.847059 0.847059
0.878431 0.878431 0.878431
1.000000 0.500000 0.125000
0.000000 0.625000 0.125000
0.125000 0.625000 0.125000
0.250000 0.625000 0.125000
0.375000 0.625000 0.125000
0.500000 0.625000 0.125000
0.625000 0.625000 0.125000
0.776471 0.776471 0.776471
0.875000 0.625000 0.125000
1.000000 0.625000 0.125000
0.000000 0.750000 0.125000
0.125000 0.750000 0.125000
0.250000 0.750000 0.125000
0.375000 0.750000 0.125000
0.500000 0.750000 0.125000
0.625000 0.750000 0.125000
0.750000 0.750000 0.125000
0.875000 0.750000 0.125000
1.000000 0.750000 0.125000
0.000000 0.875000 0.125000
0.125000 0.875000 0.125000
0.250000 0.875000 0.125000
0.375000 0.875000 0.125000
0.500000 0.875000 0.125000
0.625000 0.875000 0.125000
0.750000 0.875000 0.125000
0.875000 0.875000 0.125000
1.000000 0.875000 0.125000
0.000000 1.000000 0.125000
0.125000 1.000000 0.125000
0.250000 1.000000 0.125000
0.375000 1.000000 0.125000
0.500000 1.000000 0.125000
0.625000 1.000000 0.125000
0.750000 1.000000 0.125000
0.875000 1.000000 0.125000
1.000000 1.000000 0.125000
0.000000 0.000000 0.250000
0.125000 0.000000 0.250000
0.250000 0.000000 0.250000
0.375000 0.000000 0.250000
0.500000 0.000000 0.250000
0.625000 0.000000 0.250000
0.750000 0.000000 0.250000
0.875000 0.000000 0.250000
1.000000 0.000000 0.250000
0.245752 0.245752 0.245752
0.263741 0.263741 0.263741
0.207843 0.207843 0.207843
0.375000 0.125000 0.250000
0.500000 0.125000 0.250000
0.625000 0.125000 0.250000
0.750000 0.125000 0.250000
0.875000 0.125000 0.250000
1.000000 0.125000 0.250000
0.278431 0.278431 0.278431
0.272742 0.272742 0.272742
0.321555 0.321555 0.321555
0.362757 0.362757 0.362757
0.457843 0.457843 0.457843
0.498616 0.498616 0.498616
0.492157 0.492157 0.492157
0.733333 0.733333 0.733333
1.000000 0.250000 0.250000
0.000000 0.375000 0.250000
0.125000 0.375000 0.250000
0.731150 0.731150 0.731150
0.683245 0.683245 0.683245
0.537119 0.537119 0.537119
0.559664 0.559664 0.559664
0.578151 0.578151 0.578151
0.875000 0.375000 0.250000
0.725490 0.725490 0.725490
0.000000 0.500000 0.250000
0.125000 0.500000 0.250000
0.758170 0.758170 0.758170
0.742670 0.742670 0.742670
0.797196 0.797196 0.797196
0.708676 0.708676 0.708676
0.627451 0.627451 0.627451
0.793514 0.793514 0.793514
1.000000 0.500000 0.250000
0.000000 0.625000 0.250000
0.125000 0.625000 0.250000
0.250000 0.625000 0.250000
0.375000 0.625000 0.250000
0.500000 0.625000 0.250000
0.915033 0.915033 0.915033
0.622658 0.622658 0.622658
0.643137 0.643137 0.643137
0.948366 0.948366 0.948366
0.000000 0.750000 0.250000
0.125000 0.750000 0.250000
0.250000 0.750000 0.250000
0.375000 0.750000 0.250000
0.500000 0.750000 0.250000
0.625000 0.750000 0.250000
0.750000 0.750000 0.250000
0.701961 0.701961 0.701961
1.000000 0.750000 0.250000
0.000000 0.875000 0.250000
0.125000 0.875000 0.250000
0.250000 0.875000 0.250000
0.375000 0.875000 0.250000
0.500000 0.875000 0.250000
0.625000 0.875000 0.250000
0.750000 0.875000 0.250000
0.875000 0.875000 0.250000
0.866667 0.866667 0.866667
0.000000 1.000000 0.250000
0.125000 1.000000 0.250000
0.250000 1.000000 0.250000
0.375000 1.000000 0.250000
0.500000 1.000000 0.250000
0.625000 1.000000 0.250000
0.750000 1.000000 0.250000
0.875000 1.000000 0.250000
1.000000 1.000000 0.250000
0.000000 0.000000 0.375000
0.125000 0.000000 0.375000
0.250000 0.000000 0.375000
0.375000 0.000000 0.375000
0.500000 0.000000 0.375000
0.625000 0.000000 0.375000
0.750000 0.000000 0.375000
0.875000 0.000000 0.375000
1.000000 0.000000 0.375000
0.474339 0.474339 0.474339
0.345098 0.345098 0.345098
0.250000 0.125000 0.375000
0.375000 0.125000 0.375000
0.500000 0.125000 0.375000
0.625000 0.125000 0.375000
0.750000 0.125000 0.375000
0.875000 0.125000 0.375000
1.000000 0.125000 0.375000
0.295425 0.295425 0.295425
0.163531 0.163531 0.163531
0.318349 0.318349 0.318349
0.389858 0.389858 0.389858
0.500000 0.250000 0.375000
0.625000 0.250000 0.375000
0.750000 0.250000 0.375000
0.875000 0.250000 0.375000
1.000000 0.250000 0.375000
0.361905 0.361905 0.361905
0.303268 0.303268 0.303268
0.416314 0.416314 0.416314
0.394156 0.394156 0.394156
0.526317 0.526317 0.526317
0.589706 0.589706 0.589706
0.707177 0.707177 0.707177
0.701089 0.701089 0.701089
1.000000 0.375000 0.375000
0.000000 0.500000 0.375000
0.125000 0.500000 0.375000
0.716340 0.716340 0.716340
0.770717 0.770717 0.770717
0.714032 0.714032 0.714032
0.599683 0.599683 0.599683
0.595544 0.595544 0.595544
0.670588 0.670588 0.670588
0.934314 0.934314 0.934314
0.000000 0.625000 0.375000
0.125000 0.625000 0.375000
0.250000 0.625000 0.375000
0.924183 0.924183 0.924183
0.842850 0.842850 0.842850
0.603074 0.603074 0.603074
0.717764 0.717764 0.717764
0.757680 0.757680 0.757680
0.933333 0.933333 0.933333
0.000000 0.750000 0.375000
0.125000 0.750000 0.375000
0.250000 0.750000 0.375000
0.375000 0.750000 0.375000
0.500000 0.750000 0.375000
0.625000 0.750000 0.375000
0.514781 0.514781 0.514781
0.826025 0.826025 0.826025
1.000000 0.750000 0.375000
0.000000 0.875000 0.375000
0.125000 0.875000 0.375000
0.250000 0.875000 0.375000
0.375000 0.875000 0.375000
0.500000 0.875000 0.375000
0.625000 0.875000 0.375000
0.750000 0.875000 0.375000
0.875000 0.875000 0.375000
1.000000 0.875000 0.375000
0.000000 1.000000 0.375000
0.125000 1.000000 0.375000
0.250000 1.000000 0.375000
0.375000 1.000000 0.375000
0.500000 1.000000 0.375000
0.625000 1.000000 0.375000
0.750000 1.000000 0.375000
0.875000 1.000000 0.375000
1.000000 1.000000 0.375000
0.000000 0.000000 0.500000
0.125000 0.000000 0.500000
0.250000 0.000000 0.500000
0.375000 0.000000 0.500000
0.500000 0.000000 0.500000
0.625000 0.000000 0.500000
0.750000 0.000000 0.500000
0.875000 0.000000 0.500000
1.000000 0.000000 0.500000
0.000000 0.125000 0.500000
0.125000 0.125000 0.500000
0.250000 0.125000 0.500000
0.375000 0.125000 0.500000
0.500000 0.125000 0.500000
0.625000 0.125000 0.500000
0.750000 0.125000 0.500000
0.875000 0.125000 0.500000
1.000000 0.125000 0.500000
0.334641 0.334641 0.334641
0.202112 0.202112 0.202112
0.383007 0.383007 0.383007
0.375000 0.250000 0.500000
0.380392 0.380392 0.380392
0.625000 0.250000 0.500000
0.750000 0.250000 0.500000
0.875000 0.250000 0.500000
1.000000 0.250000 0.500000
0.852101 0.852101 0.852101
0.407843 0.407843 0.407843
0.310659 0.310659 0.310659
0.364725 0.364725 0.364725
0.419519 0.419519 0.419519
0.629412 0.629412 0.629412
0.819608 0.819608 0.819608
0.875000 0.375000 0.500000
1.000000 0.375000 0.500000
0.000000 0.500000 0.500000
0.090196 0.090196 0.090196
0.352288 0.352288 0.352288
0.463872 0.463872 0.463872
0.462664 0.462664 0.462664
0.578516 0.578516 0.578516
0.650980 0.650980 0.650980
0.866667 0.866667 0.866667
1.000000 0.500000 0.500000
0.000000 0.625000 0.500000
0.125000 0.625000 0.500000
0.250000 0.625000 0.500000
0.612045 0.612045 0.612045
0.785196 0.785196 0.785196
0.651543 0.651543 0.651543
0.665671 0.665671 0.665671
0.690383 0.690383 0.690383
0.880392 0.880392 0.880392
0.000000 0.750000 0.500000
0.125000 0.750000 0.500000
0.250000 0.750000 0.500000
0.375000 0.750000 0.500000
0.811765 0.811765 0.811765
0.708235 0.708235 0.708235
0.721008 0.721008 0.721008
0.784009 0.784009 0.784009
0.875000 0.875000 0.875000
0.000000 0.875000 0.500000
0.125000 0.875000 0.500000
0.250000 0.875000 0.500000
0.375000 0.875000 0.500000
0.500000 0.875000 0.500000
0.625000 0.875000 0.500000
1.000000 1.000000 1.000000
0.717647 0.717647 0.717647
0.957647 0.957647 0.957647
0.000000 1.000000 0.500000
0.125000 1.000000 0.500000
0.250000 1.000000 0.500000
0.375000 1.000000 0.500000
0.500000 1.000000 0.500000
0.625000 1.000000 0.500000
0.750000 1.000000 0.500000
0.875000 1.000000 0.500000
1.000000 1.000000 0.500000
0.000000 0.000000 0.625000
0.125000 0.000000 0.625000
0.250000 0.000000 0.625000
0.375000 0.000000 0.625000
0.500000 0.000000 0.625000
0.625000 0.000000 0.625000
0.750000 0.000000 0.625000
0.875000 0.000000 0.625000
1.000000 0.000000 0.625000
0.098039 0.098039 0.098039
0.125000 0.125000 0.625000
0.250000 0.125000 0.625000
0.375000 0.125000 0.625000
0.500000 0.125000 0.625000
0.625000 0.125000 0.625000
0.750000 0.125000 0.625000
0.875000 0.125000 0.625000
1.000000 0.125000 0.625000
0.000000 0.250000 0.625000
0.125000 0.250000 0.625000
0.327451 0.327451 0.327451
0.388235 0.388235 0.388235
0.500000 0.250000 0.625000
0.625000 0.250000 0.625000
0.750000 0.250000 0.625000
0.875000 0.250000 0.625000
1.000000 0.250000 0.625000
0.000000 0.375000 0.625000
0.125000 0.375000 0.625000
0.156863 0.156863 0.156863
0.339668 0.339668 0.339668
0.258824 0.258824 0.258824
0.625000 0.375000 0.625000
0.750000 0.375000 0.625000
0.875000 0.375000 0.625000
1.000000 0.375000 0.625000
0.000000 0.500000 0.625000
0.654902 0.654902 0.654902
0.317988 0.317988 0.317988
0.309792 0.309792 0.309792
0.449091 0.449091 0.449091
0.465107 0.465107 0.465107
0.513726 0.513726 0.513726
0.568627 0.568627 0.568627
1.000000 0.500000 0.625000
0.000000 0.625000 0.625000
0.125000 0.625000 0.625000
0.250000 0.625000 0.625000
0.248485 0.248485 0.248485
0.560179 0.560179 0.560179
0.523439 0.523439 0.523439
0.631343 0.631343 0.631343
0.657516 0.657516 0.657516
1.000000 0.625000 0.625000
0.000000 0.750000 0.625000
0.125000 0.750000 0.625000
0.250000 0.750000 0.625000
0.375000 0.750000 0.625000
0.844706 0.844706 0.844706
0.815756 0.815756 0.815756
0.733757 0.733757 0.733757
0.756535 0.756535 0.756535
0.762353 0.762353 0.762353
0.000000 0.875000 0.625000
0.125000 0.875000 0.625000
0.250000 0.875000 0.625000
0.375000 0.875000 0.625000
0.500000 0.875000 0.625000
0.625000 0.875000 0.625000
0.816043 0.816043 0.816043
0.333333 0.333333 0.333333
0.846615 0.846615 0.846615
0.000000 1.000000 0.625000
0.125000 1.000000 0.625000
0.250000 1.000000 0.625000
0.375000 1.000000 0.625000
0.500000 1.000000 0.625000
0.625000 1.000000 0.625000
0.750000 1.000000 0.625000
0.875000 1.000000 0.625000
0.696732 0.696732 0.696732
0.000000 0.000000 0.750000
0.125000 0.000000 0.750000
0.250000 0.000000 0.750000
0.375000 0.000000 0.750000
0.500000 0.000000 0.750000
0.625000 0.000000 0.750000
0.750000 0.000000 0.750000
0.875000 0.000000 0.750000
1.000000 0.000000 0.750000
0.000000 0.125000 0.750000
0.125000 0.125000 0.750000
0.250000 0.125000 0.750000
0.375000 0.125000 0.750000
0.500000 0.125000 0.750000
0.625000 0.125000 0.750000
0.750000 0.125000 0.750000
0.875000 0.125000 0.750000
1.000000 0.125000 0.750000
0.000000 0.250000 0.750000
0.125000 0.250000 0.750000
0.250000 0.250000 0.750000
0.375000 0.250000 0.750000
0.500000 0.250000 0.750000
0.625000 0.250000 0.750000
0.750000 0.250000 0.750000
0.875000 0.250000 0.750000
1.000000 0.250000 0.750000
0.000000 0.375000 0.750000
0.125000 0.375000 0.750000
0.250000 0.375000 0.750000
0.375000 0.375000 0.750000
0.768627 0.768627 0.768627
0.625000 0.375000 0.750000
0.750000 0.375000 0.750000
0.875000 0.375000 0.750000
1.000000 0.375000 0.750000
0.254902 0.254902 0.254902
0.125000 0.500000 0.750000
0.317087 0.317087 0.317087
0.397596 0.397596 0.397596
0.392113 0.392113 0.392113
0.404482 0.404482 0.404482
0.750000 0.500000 0.750000
0.875000 0.500000 0.750000
1.000000 0.500000 0.750000
0.000000 0.625000 0.750000
0.117647 0.117647 0.117647
0.509804 0.509804 0.509804
0.247843 0.247843 0.247843
0.352855 0.352855 0.352855
0.557939 0.557939 0.557939
0.537329 0.537329 0.537329
0.562567 0.562567 0.562567
1.000000 0.625000 0.750000
0.000000 0.750000 0.750000
0.125000 0.750000 0.750000
0.250000 0.750000 0.750000
0.375000 0.750000 0.750000
0.746405 0.746405 0.746405
0.566319 0.566319 0.566319
0.619832 0.619832 0.619832
0.718123 0.718123 0.718123
0.696863 0.696863 0.696863
0.000000 0.875000 0.750000
0.125000 0.875000 0.750000
0.250000 0.875000 0.750000
0.375000 0.875000 0.750000
0.500000 0.875000 0.750000
0.839216 0.839216 0.839216
0.782091 0.782091 0.782091
0.748103 0.748103 0.748103
0.836790 0.836790 0.836790
0.000000 1.000000 0.750000
0.125000 1.000000 0.750000
0.250000 1.000000 0.750000
0.375000 1.000000 0.750000
0.500000 1.000000 0.750000
0.625000 1.000000 0.750000
0.847059 0.847059 0.847059
0.152941 0.152941 0.152941
0.728105 0.728105 0.728105
0.000000 0.000000 0.875000
0.125000 0.000000 0.875000
0.250000 0.000000 0.875000
0.375000 0.000000 0.875000
0.500000 0.000000 0.875000
0.625000 0.000000 0.875000
0.750000 0.000000 0.875000
0.875000 0.000000 0.875000
1.000000 0.000000 0.875000
0.000000 0.125000 0.875000
0.125000 0.125000 0.875000
0.250000 0.125000 0.875000
0.375000 0.125000 0.875000
0.500000 0.125000 0.875000
0.625000 0.125000 0.875000
0.750000 0.125000 0.875000
0.875000 0.125000 0.875000
1.000000 0.125000 0.875000
0.000000 0.250000 0.875000
0.125000 0.250000 0.875000
0.250000 0.250000 0.875000
0.375000 0.250000 0.875000
0.500000 0.250000 0.875000
0.625000 0.250000 0.875000
0.750000 0.250000 0.875000
0.875000 0.250000 0.875000
1.000000 0.250000 0.875000
0.000000 0.375000 0.875000
0.125000 0.375000 0.875000
0.752941 0.752941 0.752941
0.360784 0.360784 0.360784
0.500000 0.375000 0.875000
0.625000 0.375000 0.875000
0.750000 0.375000 0.875000
0.875000 0.375000 0.875000
1.000000 0.375000 0.875000
0.000000 0.500000 0.875000
0.293333 0.293333 0.293333
0.250000 0.500000 0.875000
0.800000 0.800000 0.800000
0.308235 0.308235 0.308235
0.625000 0.500000 0.875000
0.750000 0.500000 0.875000
0.875000 0.500000 0.875000
1.000000 0.500000 0.875000
0.000000 0.625000 0.875000
0.125000 0.625000 0.875000
0.329412 0.329412 0.329412
0.306451 0.306451 0.306451
0.371688 0.371688 0.371688
0.590196 0.590196 0.590196
0.506863 0.506863 0.506863
0.875000 0.625000 0.875000
1.000000 0.625000 0.875000
0.000000 0.750000 0.875000
0.125000 0.750000 0.875000
0.462745 0.462745 0.462745
0.375000 0.750000 0.875000
0.410588 0.410588 0.410588
0.455751 0.455751 0.455751
0.586653 0.586653 0.586653
0.597894 0.597894 0.597894
0.603922 0.603922 0.603922
0.000000 0.875000 0.875000
0.125000 0.875000 0.875000
0.250000 0.875000 0.875000
0.375000 0.875000 0.875000
0.411765 0.411765 0.411765
0.625397 0.625397 0.625397
0.695769 0.695769 0.695769
0.740574 0.740574 0.740574
0.732481 0.732481 0.732481
0.000000 1.000000 0.875000
0.125000 1.000000 0.875000
0.250000 1.000000 0.875000
0.941176 0.941176 0.941176
0.500000 1.000000 0.875000
0.625000 1.000000 0.875000
1.000000 1.000000 1.000000
0.873529 0.873529 0.873529
0.742830 0.742830 0.742830
0.000000 0.000000 1.000000
0.125000 0.000000 1.000000
0.250000 0.000000 1.000000
0.375000 0.000000 1.000000
0.500000 0.000000 1.000000
0.625000 0.000000 1.000000
0.750000 0.000000 1.000000
0.875000 0.000000 1.000000
1.000000 0.000000 1.000000
0.000000 0.125000 1.000000
0.125000 0.125000 1.000000
0.250000 0.125000 1.000000
0.375000 0.125000 1.000000
0.500000 0.125000 1.000000
0.625000 0.125000 1.000000
0.750000 0.125000 1.000000
0.875000 0.125000 1.000000
1.000000 0.125000 1.000000
0.000000 0.250000 1.000000
0.125000 0.250000 1.000000
0.250000 0.250000 1.000000
0.375000 0.250000 1.000000
0.500000 0.250000 1.000000
0.625000 0.250000 1.000000
0.750000 0.250000 1.000000
0.875000 0.250000 1.000000
1.000000 0.250000 1.000000
0.000000 0.375000 1.000000
0.125000 0.375000 1.000000
0.250000 0.375000 1.000000
0.375000 0.375000 1.000000
0.500000 0.375000 1.000000
0.625000 0.375000 1.000000
0.750000 0.375000 1.000000
0.875000 0.375000 1.000000
1.000000 0.375000 1.000000
0.000000 0.500000 1.000000
0.125000 0.500000 1.000000
0.968627 0.968627 0.968627
0.375000 0.500000 1.000000
0.500000 0.500000 1.000000
0.625000 0.500000 1.000000
0.750000 0.500000 1.000000
0.875000 0.500000 1.000000
1.000000 0.500000 1.000000
0.000000 0.625000 1.000000
0.392157 0.392157 0.392157
0.231373 0.231373 0.231373
0.197647 0.197647 0.197647
0.398246 0.398246 0.398246
0.326546 0.326546 0.326546
1.000000 1.000000 1.000000
0.875000 0.625000 1.000000
1.000000 0.625000 1.000000
0.000000 0.750000 1.000000
0.125000 0.750000 1.000000
0.250000 0.750000 1.000000
0.784314 0.784314 0.784314
0.538998 0.538998 0.538998
0.462389 0.462389 0.462389
0.397642 0.397642 0.397642
0.639216 0.639216 0.639216
1.000000 0.750000 1.000000
0.000000 0.875000 1.000000
0.125000 0.875000 1.000000
0.250000 0.875000 1.000000
0.541176 0.541176 0.541176
0.279552 0.279552 0.279552
0.498679 0.498679 0.498679
0.569883 0.569883 0.569883
0.495666 0.495666 0.495666
0.740411 0.740411 0.740411
0.000000 1.000000 1.000000
0.125000 1.000000 1.000000
0.250000 1.000000 1.000000
0.375000 1.000000 1.000000
0.721569 0.721569 0.721569
0.452451 0.452451 0.452451
0.498546 0.498546 0.498546
0.574945 0.574945 0.574945
0.760195 0.760195 0.760195
