PiCameraControl/PiCameraControl/LUTs/nir_to_rgb.cube
TITLE "NIR_to_RGB_Restore"
LUT_3D_SIZE 9
0.049715 0.061776 0.069932
0.111042 0.131770 0.153115
0.195125 0.210747 0.227901
0.282775 0.292268 0.305552
0.332236 0.337271 0.346991
0.435055 0.432533 0.432793
0.486233 0.482528 0.474261
0.524506 0.521131 0.498491
0.561976 0.560356 0.522281
0.087314 0.105447 0.118094
0.170555 0.188664 0.208280
0.248017 0.258945 0.272333
0.309165 0.316591 0.328633
0.387509 0.387146 0.390890
0.453610 0.450574 0.449736
0.486233 0.482528 0.474261
0.541065 0.538791 0.507019
0.580413 0.579574 0.534035
0.144502 0.165318 0.187730
0.207338 0.221713 0.237268
0.302070 0.310568 0.323416
0.339405 0.343320 0.351744
0.453610 0.450574 0.449736
0.486233 0.482528 0.474261
0.524507 0.521131 0.498491
0.559502 0.558008 0.518772
0.646414 0.645038 0.589207
0.207338 0.221713 0.237268
0.258079 0.269023 0.282903
0.335833 0.340266 0.349486
0.415331 0.413499 0.415545
0.469984 0.466634 0.464666
0.522325 0.518478 0.497834
0.559502 0.558008 0.518772
0.630402 0.629118 0.575442
0.661879 0.660455 0.602072
0.241970 0.253875 0.267460
0.297134 0.305907 0.318480
0.361771 0.363327 0.369583
0.459437 0.456340 0.455265
0.511587 0.507726 0.492590
0.548305 0.546309 0.511703
0.572266 0.571869 0.525562
0.653361 0.651761 0.594559
0.728337 0.725808 0.659595
0.270320 0.280303 0.292948
0.349845 0.353301 0.361434
0.431705 0.429558 0.430474
0.497626 0.494041 0.483621
0.530946 0.528042 0.502317
0.564158 0.562752 0.521652
0.617845 0.616614 0.563303
0.703316 0.701341 0.638010
0.760159 0.756466 0.686071
0.349845 0.353301 0.361434
0.390762 0.390917 0.395037
0.471167 0.468184 0.461785
0.515560 0.511867 0.495451
0.548305 0.546309 0.511703
0.612529 0.611283 0.560149
0.676276 0.674609 0.614014
0.760159 0.756466 0.686071
0.815216 0.813231 0.749705
0.390762 0.390917 0.395037
0.431705 0.429558 0.430474
0.497626 0.494041 0.483621
0.548305 0.546309 0.511703
0.612529 0.611283 0.560149
0.628541 0.627204 0.573913
0.728080 0.725164 0.658937
0.792001 0.790310 0.729266
0.815216 0.813231 0.749705
0.431705 0.429558 0.430474
0.497626 0.494041 0.483621
0.541852 0.539784 0.508201
0.576163 0.574598 0.532318
0.612529 0.611283 0.560149
0.711969 0.709771 0.644892
0.762159 0.758586 0.687154
0.799040 0.796999 0.733487
0.817216 0.815350 0.750788
0.074985 0.093004 0.104979
0.114670 0.138426 0.163687
0.195125 0.210747 0.227901
0.284008 0.293276 0.305988
0.354598 0.356846 0.363651
0.435055 0.432533 0.432793
0.486233 0.482528 0.474261
0.524506 0.521131 0.498491
0.580413 0.579574 0.534035
0.096387 0.117316 0.136143
0.187773 0.203511 0.219634
0.270429 0.280330 0.293503
0.322639 0.328878 0.339113
0.407323 0.405752 0.408002
0.480630 0.477039 0.472249
0.524506 0.521131 0.498491
0.565949 0.564498 0.525142
0.624046 0.623159 0.570459
0.144502 0.165318 0.187730
0.227506 0.239578 0.252528
0.310713 0.318852 0.330965
0.376963 0.376852 0.381490
0.453610 0.450574 0.449736
0.499023 0.494985 0.485324
0.541065 0.538791 0.507019
0.580413 0.579574 0.534035
0.652313 0.651024 0.594678
0.207338 0.221713 0.237268
0.297134 0.305907 0.318480
0.361771 0.363327 0.369583
0.415332 0.413499 0.415544
0.482774 0.479091 0.475729
0.522325 0.518478 0.497834
0.570407 0.569750 0.524656
0.646414 0.645038 0.589207
0.709816 0.707769 0.643111
0.271553 0.281310 0.293383
0.325141 0.331247 0.341774
0.415331 0.413499 0.415545
0.462980 0.459920 0.457968
0.511587 0.507726 0.492590
0.548305 0.546309 0.511703
0.611555 0.610350 0.560024
0.661879 0.660455 0.602072
0.728337 0.725808 0.659595
0.297134 0.305907 0.318480
0.361771 0.363327 0.369583
0.445444 0.442740 0.442668
0.505984 0.502236 0.490578
0.548305 0.546309 0.511703
0.589319 0.588417 0.541155
0.644520 0.642818 0.588520
0.718200 0.716421 0.651790
0.778335 0.774818 0.703372
0.351078 0.354308 0.361870
0.431705 0.429558 0.430474
0.497626 0.494041 0.483621
0.541852 0.539784 0.508201
0.562769 0.561385 0.520595
0.612529 0.611283 0.560149
0.681061 0.679628 0.619038
0.760159 0.756466 0.686071
0.815216 0.813231 0.749705
0.397958 0.397992 0.401624
0.471167 0.468184 0.461785
0.520208 0.517290 0.497073
0.548305 0.546309 0.511703
0.612529 0.611283 0.560149
0.681061 0.679628 0.619038
0.739009 0.736503 0.668888
0.799040 0.796999 0.733487
0.817216 0.815350 0.750788
0.431705 0.429558 0.430474
0.497626 0.494041 0.483621
0.541852 0.539784 0.508201
0.602713 0.601630 0.552877
0.647864 0.646411 0.591201
0.711969 0.709771 0.644892
0.762159 0.758586 0.687154
0.817216 0.815350 0.750788
0.817216 0.815350 0.750788
0.090812 0.111909 0.132380
0.138822 0.159768 0.182580
0.232442 0.244239 0.257464
0.310398 0.317599 0.329069
0.373082 0.374751 0.380082
0.435055 0.432533 0.432793
0.489775 0.486108 0.476964
0.532615 0.530248 0.502401
0.592833 0.591854 0.545633
0.127487 0.149054 0.170680
0.227506 0.239578 0.252528
0.284008 0.293276 0.305988
0.337831 0.342404 0.351020
0.415261 0.413362 0.415032
0.480630 0.477039 0.472249
0.526318 0.523118 0.499536
0.583996 0.583061 0.537246
0.652313 0.651024 0.594677
0.167611 0.185665 0.203507
0.243203 0.254882 0.267896
0.322639 0.328878 0.339113
0.396776 0.395458 0.398601
0.478341 0.474829 0.471623
0.505688 0.501671 0.489399
0.551498 0.550342 0.512547
0.608091 0.607114 0.557020
0.652313 0.651024 0.594677
0.243203 0.254882 0.267896
0.300706 0.308961 0.320737
0.372207 0.372876 0.378094
0.445444 0.442740 0.442668
0.498923 0.495061 0.487016
0.539417 0.537084 0.505776
0.595671 0.594833 0.545422
0.652313 0.651024 0.594677
0.709816 0.707769 0.643111
0.271553 0.281310 0.293383
0.351078 0.354308 0.361870
0.445444 0.442740 0.442668
0.489439 0.485777 0.479803
0.532758 0.530029 0.503362
0.575849 0.575356 0.528772
0.634955 0.633387 0.581125
0.688665 0.687806 0.625928
0.778335 0.774818 0.703372
0.323072 0.328967 0.338576
0.397958 0.397992 0.401624
0.462980 0.459920 0.457968
0.505984 0.502236 0.490578
0.550117 0.548296 0.512748
0.616111 0.614770 0.563359
0.656422 0.655090 0.598596
0.745584 0.742951 0.674759
0.815216 0.813231 0.749705
0.351078 0.354308 0.361870
0.445444 0.442740 0.442668
0.505984 0.502236 0.490578
0.541852 0.539784 0.508201
0.592902 0.591904 0.544366
0.656422 0.655090 0.598596
0.705482 0.703653 0.640992
0.762159 0.758586 0.687154
0.817216 0.815350 0.750788
0.420875 0.420158 0.422161
0.482647 0.479485 0.470114
0.520208 0.517290 0.497073
0.573466 0.571974 0.531206
0.616111 0.614770 0.563359
0.681061 0.679628 0.619038
0.762159 0.758586 0.687154
0.817216 0.815350 0.750788
0.817216 0.815350 0.750788
0.471167 0.468184 0.461785
0.520208 0.517290 0.497073
0.541852 0.539784 0.508201
0.602713 0.601630 0.552877
0.675745 0.674297 0.615884
0.746048 0.743192 0.673110
0.799040 0.796999 0.733487
0.817216 0.815350 0.750788
0.817216 0.815350 0.750788
0.114670 0.138426 0.163687
0.199115 0.214244 0.230666
0.267900 0.278127 0.290545
0.337831 0.342404 0.351020
0.392895 0.393356 0.397193
0.457259 0.454383 0.451051
0.514931 0.511500 0.493617
0.567761 0.566485 0.526188
0.621101 0.619719 0.569851
0.127487 0.149054 0.170680
0.227506 0.239578 0.252528
0.322639 0.328878 0.339113
0.362535 0.364457 0.370681
0.415261 0.413362 0.415032
0.489775 0.486108 0.476964
0.526318 0.523118 0.499536
0.583996 0.583061 0.537246
0.652313 0.651024 0.594678
0.192237 0.207936 0.223471
0.271553 0.281310 0.293383
0.333075 0.338428 0.347624
0.415261 0.413362 0.415032
0.483010 0.479498 0.474582
0.526318 0.523118 0.499536
0.583996 0.583061 0.537246
0.636359 0.634979 0.581239
0.676763 0.675534 0.615852
0.243203 0.254882 0.267896
0.336651 0.341913 0.351061
0.385946 0.386058 0.390288
0.453802 0.450935 0.449625
0.509185 0.505591 0.492679
0.561436 0.559788 0.520740
0.625144 0.623661 0.572613
0.652313 0.651024 0.594677
0.730712 0.728182 0.662180
0.271553 0.281310 0.293383
0.355440 0.358434 0.365463
0.445444 0.442740 0.442668
0.505984 0.502236 0.490578
0.532758 0.530029 0.503362
0.592902 0.591904 0.544366
0.643473 0.642081 0.588638
0.704463 0.703401 0.640331
0.778887 0.775389 0.703694
0.351078 0.354308 0.361870
0.445444 0.442740 0.442668
0.462980 0.459920 0.457968
0.517372 0.513855 0.496497
0.569552 0.568226 0.525908
0.616111 0.614770 0.563359
0.686960 0.685614 0.624509
0.768750 0.766002 0.695890
0.817216 0.815350 0.750788
0.397958 0.397992 0.401624
0.462980 0.459920 0.457968
0.505984 0.502236 0.490578
0.550117 0.548296 0.512748
0.616111 0.614770 0.563359
0.675745 0.674297 0.615884
0.739561 0.737074 0.669210
0.817216 0.815350 0.750788
0.817216 0.815350 0.750788
0.445444 0.442740 0.442668
0.482647 0.479485 0.470114
0.537567 0.535557 0.506459
0.592902 0.591904 0.544366
0.636851 0.635835 0.581822
0.712521 0.710342 0.645214
0.762159 0.758586 0.687154
0.817216 0.815350 0.750788
0.817216 0.815350 0.750788
0.482647 0.479485 0.470114
0.520208 0.517290 0.497073
0.573466 0.571974 0.531206
0.616111 0.614770 0.563359
0.675745 0.674297 0.615884
0.746048 0.743192 0.673110
0.799040 0.796999 0.733487
0.817216 0.815350 0.750788
0.817216 0.815350 0.750788
0.127487 0.149054 0.170680
0.199115 0.214244 0.230666
0.267900 0.278127 0.290545
0.337831 0.342404 0.351020
0.415261 0.413362 0.415032
0.457259 0.454383 0.451051
0.526318 0.523118 0.499536
0.583996 0.583061 0.537246
0.636359 0.634979 0.581239
0.150596 0.169401 0.186457
0.238746 0.250476 0.263191
0.333075 0.338428 0.347624
0.382349 0.383062 0.387792
0.454971 0.452173 0.450426
0.520715 0.517629 0.497523
0.577700 0.575931 0.534381
0.602772 0.601300 0.553827
0.652313 0.651024 0.594678
0.243203 0.254882 0.267896
0.285132 0.294256 0.305868
0.355440 0.358434 0.365463
0.426889 0.424699 0.425725
0.498923 0.495061 0.487016
0.534940 0.532683 0.504019
0.583996 0.583061 0.537246
0.636359 0.634979 0.581239
0.688665 0.687806 0.625928
0.271553 0.281310 0.293383
0.355440 0.358434 0.365463
0.426889 0.424699 0.425725
0.453802 0.450935 0.449625
0.509185 0.505591 0.492679
0.561436 0.559788 0.520740
0.634636 0.633288 0.580251
0.681548 0.680554 0.620876
0.745790 0.743835 0.675898
0.307497 0.314262 0.323707
0.402320 0.402117 0.405217
0.453802 0.450935 0.449625
0.509185 0.505591 0.492679
0.561436 0.559788 0.520740
0.602908 0.601728 0.553744
0.661348 0.660143 0.603942
0.716601 0.714908 0.649218
0.815767 0.813802 0.750027
0.355440 0.358434 0.365463
0.445444 0.442740 0.442668
0.474460 0.471221 0.466297
0.528473 0.525803 0.501620
0.592902 0.591904 0.544366
0.643992 0.642656 0.588042
0.704463 0.703401 0.640331
0.768750 0.766002 0.695890
0.817216 0.815350 0.750788
0.420875 0.420158 0.422161
0.462980 0.459920 0.457968
0.517372 0.513855 0.496497
0.569552 0.568226 0.525908
0.616111 0.614770 0.563359
0.675745 0.674297 0.615884
0.739561 0.737074 0.669210
0.817216 0.815350 0.750788
0.817216 0.815350 0.750788
0.462980 0.459920 0.457968
0.505984 0.502236 0.490578
0.550117 0.548296 0.512748
0.616111 0.614770 0.563359
0.675745 0.674297 0.615884
0.739561 0.737074 0.669210
0.805630 0.804416 0.742223
0.817216 0.815350 0.750788
0.817216 0.815350 0.750788
0.482647 0.479485 0.470114
0.537567 0.535557 0.506459
0.592902 0.591904 0.544366
0.636851 0.635835 0.581822
0.712521 0.710342 0.645214
0.746048 0.743192 0.673110
0.817216 0.815350 0.750788
0.817216 0.815350 0.750788
0.817216 0.815350 0.750788
0.127487 0.149054 0.170680
0.238746 0.250476 0.263191
0.296249 0.304555 0.316032
0.351843 0.355438 0.362968
0.415261 0.413362 0.415032
0.483010 0.479498 0.474582
0.551203 0.548826 0.517660
0.583996 0.583061 0.537246
0.636359 0.634979 0.581239
0.187780 0.203530 0.218766
0.256782 0.267828 0.280381
0.333075 0.338428 0.347624
0.415261 0.413362 0.415032
0.468888 0.465719 0.461744
0.520715 0.517629 0.497523
0.577700 0.575931 0.534381
0.636359 0.634979 0.581239
0.663673 0.662492 0.605572
0.243203 0.254882 0.267896
0.333075 0.338428 0.347624
0.380010 0.381015 0.385971
0.444424 0.441879 0.441025
0.507188 0.503574 0.491563
0.561436 0.559788 0.520740
0.601049 0.599609 0.552839
0.636359 0.634979 0.581239
0.743789 0.741716 0.674815
0.271553 0.281310 0.293383
0.355440 0.358434 0.365463
0.426889 0.424699 0.425725
0.509185 0.505591 0.492679
0.532651 0.530473 0.503393
0.577700 0.575931 0.534381
0.634636 0.633288 0.580251
0.716601 0.714908 0.649218
0.745790 0.743835 0.675898
0.355440 0.358434 0.365463
0.426889 0.424699 0.425725
0.453802 0.450935 0.449625
0.509185 0.505591 0.492679
0.561436 0.559788 0.520740
0.625144 0.623661 0.572613
0.679825 0.678863 0.619889
0.745790 0.743835 0.675898
0.815767 0.813802 0.750027
0.381191 0.383549 0.388994
0.453802 0.450935 0.449625
0.509185 0.505591 0.492679
0.569552 0.568226 0.525908
0.592902 0.591904 0.544366
0.652511 0.651350 0.595555
0.721039 0.719036 0.652727
0.805630 0.804416 0.742223
0.817216 0.815350 0.750788
0.445444 0.442740 0.442668
0.474460 0.471221 0.466297
0.528473 0.525803 0.501620
0.592902 0.591904 0.544366
0.643992 0.642656 0.588042
0.721039 0.719036 0.652727
0.752638 0.750609 0.681845
0.817216 0.815350 0.750788
0.817216 0.815350 0.750788
0.462980 0.459920 0.457968
0.517372 0.513855 0.496497
0.569552 0.568226 0.525908
0.616111 0.614770 0.563359
0.675745 0.674297 0.615884
0.739561 0.737074 0.669210
0.805630 0.804416 0.742223
0.817216 0.815350 0.750788
0.817216 0.815350 0.750788
0.482647 0.479485 0.470114
0.537567 0.535557 0.506459
0.616111 0.614770 0.563359
0.675745 0.674297 0.615884
0.712521 0.710342 0.645214
0.805630 0.804416 0.742223
0.817216 0.815350 0.750788
0.817216 0.815350 0.750788
0.817216 0.815350 0.750788
0.150596 0.169401 0.186457
0.238746 0.250476 0.263191
0.333075 0.338428 0.347624
0.382349 0.383062 0.387792
0.454971 0.452173 0.450426
0.520715 0.517629 0.497523
0.577700 0.575931 0.534381
0.612264 0.610926 0.561464
0.636359 0.634979 0.581239
0.238746 0.250476 0.263191
0.285132 0.294256 0.305868
0.351843 0.355438 0.362968
0.426889 0.424699 0.425725
0.507188 0.503574 0.491563
0.520715 0.517629 0.497523
0.577700 0.575931 0.534381
0.636359 0.634979 0.581239
0.675575 0.674763 0.615648
0.243203 0.254882 0.267896
0.333075 0.338428 0.347624
0.426889 0.424699 0.425725
0.444424 0.441879 0.441025
0.507188 0.503574 0.491563
0.577700 0.575931 0.534381
0.634636 0.633288 0.580251
0.675575 0.674763 0.615648
0.745790 0.743835 0.675898
0.285132 0.294256 0.305868
0.355440 0.358434 0.365463
0.444424 0.441879 0.441025
0.509185 0.505591 0.492679
0.561436 0.559788 0.520740
0.600071 0.598293 0.553168
0.648261 0.647250 0.591314
0.716601 0.714908 0.649218
0.792207 0.791194 0.730405
0.355440 0.358434 0.365463
0.426889 0.424699 0.425725
0.474460 0.471221 0.466297
0.520286 0.517539 0.497803
0.583808 0.582150 0.539527
0.634636 0.633288 0.580251
0.716601 0.714908 0.649218
0.745790 0.743835 0.675898
0.815767 0.813802 0.750027
0.402320 0.402117 0.405217
0.453802 0.450935 0.449625
0.509185 0.505591 0.492679
0.569552 0.568226 0.525908
0.626117 0.624594 0.572738
0.684263 0.682991 0.623397
0.721039 0.719036 0.652727
0.805630 0.804416 0.742223
0.817216 0.815350 0.750788
0.453802 0.450935 0.449625
0.509185 0.505591 0.492679
0.547909 0.545733 0.514780
0.592902 0.591904 0.544366
0.643992 0.642656 0.588042
0.721039 0.719036 0.652727
0.805630 0.804416 0.742223
0.817216 0.815350 0.750788
0.817216 0.815350 0.750788
0.474460 0.471221 0.466297
0.528473 0.525803 0.501620
0.592902 0.591904 0.544366
0.643992 0.642656 0.588042
0.712521 0.710342 0.645214
0.752638 0.750609 0.681845
0.805630 0.804416 0.742223
0.817216 0.815350 0.750788
0.817216 0.815350 0.750788
0.517372 0.513855 0.496497
0.569552 0.568226 0.525908
0.616111 0.614770 0.563359
0.675745 0.674297 0.615884
0.739561 0.737074 0.669210
0.805630 0.804416 0.742223
0.817216 0.815350 0.750788
0.817216 0.815350 0.750788
0.817216 0.815350 0.750788
0.150596 0.169401 0.186457
0.256782 0.267828 0.280381
0.333075 0.338428 0.347624
0.382349 0.383062 0.387792
0.468888 0.465719 0.461744
0.520715 0.517629 0.497523
0.577700 0.575931 0.534381
0.612264 0.610926 0.561464
0.663673 0.662492 0.605572
0.238746 0.250476 0.263191
0.333075 0.338428 0.347624
0.351843 0.355438 0.362968
0.444424 0.441879 0.441025
0.507188 0.503574 0.491563
0.577700 0.575931 0.534381
0.612264 0.610926 0.561464
0.636359 0.634979 0.581239
0.745790 0.743835 0.675898
0.260380 0.270823 0.282876
0.355440 0.358434 0.365463
0.426889 0.424699 0.425725
0.507188 0.503574 0.491563
0.518427 0.515420 0.496898
0.577700 0.575931 0.534381
0.634636 0.633288 0.580251
0.675575 0.674763 0.615648
0.745790 0.743835 0.675898
0.355440 0.358434 0.365463
0.426889 0.424699 0.425725
0.444424 0.441879 0.441025
0.509185 0.505591 0.492679
0.561436 0.559788 0.520740
0.634636 0.633288 0.580251
0.648261 0.647250 0.591314
0.745790 0.743835 0.675898
0.792207 0.791194 0.730405
0.355440 0.358434 0.365463
0.444424 0.441879 0.441025
0.509185 0.505591 0.492679
0.547909 0.545733 0.514780
0.600071 0.598293 0.553168
0.652511 0.651350 0.595555
0.716601 0.714908 0.649218
0.792207 0.791194 0.730405
0.815767 0.813802 0.750027
0.426889 0.424699 0.425725
0.474460 0.471221 0.466297
0.520286 0.517539 0.497803
0.583808 0.582150 0.539527
0.652511 0.651350 0.595555
0.721039 0.719036 0.652727
0.752638 0.750609 0.681845
0.805630 0.804416 0.742223
0.817216 0.815350 0.750788
0.453802 0.450935 0.449625
0.509185 0.505591 0.492679
0.569552 0.568226 0.525908
0.643992 0.642656 0.588042
0.684263 0.682991 0.623397
0.721039 0.719036 0.652727
0.805630 0.804416 0.742223
0.817216 0.815350 0.750788
0.817216 0.815350 0.750788
0.474460 0.471221 0.466297
0.547909 0.545733 0.514780
0.592902 0.591904 0.544366
0.643992 0.642656 0.588042
0.721039 0.719036 0.652727
0.752638 0.750609 0.681845
0.805630 0.804416 0.742223
0.817216 0.815350 0.750788
0.817216 0.815350 0.750788
0.528473 0.525803 0.501620
0.592902 0.591904 0.544366
0.643992 0.642656 0.588042
0.712521 0.710342 0.645214
0.752638 0.750609 0.681845
0.805630 0.804416 0.742223
0.817216 0.815350 0.750788
0.817216 0.815350 0.750788
0.817216 0.815350 0.750788
0.238746 0.250476 0.263191
0.256782 0.267828 0.280381
0.351843 0.355438 0.362968
0.426889 0.424699 0.425725
0.468888 0.465719 0.461744
0.520715 0.517629 0.497523
0.577700 0.575931 0.534381
0.636359 0.634979 0.581239
0.675575 0.674763 0.615648
0.256782 0.267828 0.280381
0.333075 0.338428 0.347624
0.426889 0.424699 0.425725
0.444424 0.441879 0.441025
0.507188 0.503574 0.491563
0.577700 0.575931 0.534381
0.612264 0.610926 0.561464
0.654836 0.653698 0.597185
0.745790 0.743835 0.675898
0.285132 0.294256 0.305868
0.355440 0.358434 0.365463
0.444424 0.441879 0.441025
0.507188 0.503574 0.491563
0.561436 0.559788 0.520740
0.577700 0.575931 0.534381
0.648261 0.647250 0.591314
0.716601 0.714908 0.649218
0.745790 0.743835 0.675898
0.355440 0.358434 0.365463
0.426889 0.424699 0.425725
0.482725 0.479734 0.470844
0.533685 0.530679 0.508285
0.577700 0.575931 0.534381
0.634636 0.633288 0.580251
0.716601 0.714908 0.649218
0.745790 0.743835 0.675898
0.792207 0.791194 0.730405
0.396383 0.397075 0.400900
0.444424 0.441879 0.441025
0.509185 0.505591 0.492679
0.561436 0.559788 0.520740
0.634636 0.633288 0.580251
0.652511 0.651350 0.595555
0.739215 0.737387 0.670027
0.792207 0.791194 0.730405
0.815767 0.813802 0.750027
0.444424 0.441879 0.441025
0.482725 0.479734 0.470844
0.547909 0.545733 0.514780
0.583808 0.582150 0.539527
0.652511 0.651350 0.595555
0.721039 0.719036 0.652727
0.752638 0.750609 0.681845
0.805630 0.804416 0.742223
0.817216 0.815350 0.750788
0.474460 0.471221 0.466297
0.520286 0.517539 0.497803
0.583808 0.582150 0.539527
0.643992 0.642656 0.588042
0.721039 0.719036 0.652727
0.752638 0.750609 0.681845
0.805630 0.804416 0.742223
0.817216 0.815350 0.750788
0.817216 0.815350 0.750788
0.509185 0.505591 0.492679
0.547909 0.545733 0.514780
0.643992 0.642656 0.588042
0.665934 0.664571 0.607372
0.721039 0.719036 0.652727
0.805630 0.804416 0.742223
0.805630 0.804416 0.742223
0.817216 0.815350 0.750788
0.817216 0.815350 0.750788
0.547909 0.545733 0.514780
0.592902 0.591904 0.544366
0.643992 0.642656 0.588042
0.712521 0.710342 0.645214
0.752638 0.750609 0.681845
0.805630 0.804416 0.742223
0.817216 0.815350 0.750788
0.817216 0.815350 0.750788
0.817216 0.815350 0.750788
